;TIME:1561.97
;Filament used:0.65265m
;Layer height:0.200
; HEADER_BLOCK_START
; generated by Creality_Print V6.3.1.3548 on 2025-12-25 at 12:02:27
; total layer number: 9
; filament_density: 1.24,1.27
; filament_diameter: 1.75,1.75
; max_z_height: 1.80
; creality_uuid: cebe4f54-d887-4d80-bbf5-55b9225b4f52
; HEADER_BLOCK_END

; MINX = 100.61
; MINY = 74.88
; MINZ = 0.00
; MAXX = 131.82
; MAXY = 140.10
; MAXZ = 1.80

; multicolor_method = 1 
; THUMBNAIL_BLOCK_START

;
; THUMBNAIL_BLOCK_END

; THUMBNAIL_BLOCK_START

;
; THUMBNAIL_BLOCK_END

; external perimeters extrusion width = 0.42mm
; perimeters extrusion width = 0.45mm
; infill extrusion width = 0.45mm
; solid infill extrusion width = 0.42mm
; top infill extrusion width = 0.42mm
; first layer extrusion width = 0.50mm

; EXECUTABLE_BLOCK_START
M73 P0 R26
M201 X5000 Y5000 Z500 E5000
M203 X500 Y500 Z30 E100
M204 P5000 R2500 T5000 ; sets acceleration (P, T) and retract acceleration (R), mm/sec^2
M205 X10.00 Y10.00 Z0.40 E5.00 ; sets the jerk limits, mm/sec
; max_print_temp = 60,227
;TYPE:Custom
M220 S100 ;Reset Feedrate 
M221 S100 ;Reset Flowrate 
 
M140 S60 ;Set final bed temp 
G28 ;Home 
 
G92 E0 ;Reset Extruder 
G1 Z2.0 F3000 ;Move Z Axis up 
M104 S227 ;Set final nozzle temp 
G1 X-2.1 Y20 Z0.28 F5000.0 ;Move to start position 
M190 S60 ;Wait for bed temp to stabilize 
M109 S227 ;Wait for nozzle temp to stabilize 
G1 X-2.1 Y145.0 Z0.28 F1500.0 E15 ;Draw the first line 
G1 X-2.4 Y145.0 Z0.28 F5000.0 ;Move to side a little 
M73 P0 R25
G1 X-2.4 Y20 Z0.28 F1500.0 E30 ;Draw the second line 
G92 E0  ;Reset Extruder 
G1 E-1.0000 F1800 ;Retract a bit 
G1 Z2.0 F3000 ;Move Z Axis up 
G1 E0.0000 F1800
G90
G21
M83 ; use relative distances for extrusion
;filament start gcode
; MANUAL_TOOL_CHANGE T0
G1 E-1.2 F2400
G1 Z.2 F9000
M106 S0
;LAYER_CHANGE
;Z:0.2
;HEIGHT:0.2
;BEFORE_LAYER_CHANGE
;0.2
G92 E0

;_SET_FAN_SPEED_CHANGING_LAYER
M204 P500
M205 X10 Y10
; printing object Body_19 id:1873497441127366655 copy 0
M204 T500
G1 X129.059 Y78.546 Z.4 F9000
G1 Z.2
M73 P1 R25
G1 E1.2 F1800
;TYPE:Inner wall
;WIDTH:0.499999
G1 X129.416 Y78.674 E.0137
G1 X129.925 Y78.693 E.0184
G2 X129.029 Y81.212 I6.312 J3.664 E.09709
G1 X128.962 Y82.165 E.03449
G1 X128.962 Y132.158 E1.80505
G2 X129.096 Y134.152 I10.072 J.324 E.07227
G2 X129.942 Y136.287 I6.144 J-1.2 E.08338
G2 X129.145 Y136.377 I-.138 J2.36 E.0291
G1 X128.718 Y136.603 E.01746
G1 X128.379 Y136.929 E.01699
G1 X128.116 Y137.378 E.01875
G1 X128.007 Y137.838 E.0171
G1 X128.003 Y138.218 E.01369
G1 X127.678 Y138.013 E.01385
G2 X124.385 Y137.241 I-3.216 J6.311 E.12331
G1 X107.88 Y137.241 E.59593
G1 X107.208 Y137.277 E.02431
G1 X106.278 Y137.443 E.03411
G1 X105.732 Y137.599 E.02049
G1 X104.992 Y137.899 E.02883
G1 X104.429 Y138.215 E.02332
G2 X104.397 Y137.647 I-2.019 J-.172 E.02062
G1 X104.185 Y137.128 E.02023
G1 X103.823 Y136.7 E.02024
G1 X103.366 Y136.41 E.01956
G1 X102.874 Y136.272 E.01843
G1 X102.477 Y136.3 E.01436
G1 X102.694 Y135.957 E.01465
G2 X103.466 Y132.808 I-6.31 J-3.215 E.11809
G1 X103.466 Y82.815 E1.80505
G2 X103.332 Y80.821 I-10.073 J-.324 E.07227
G2 X102.694 Y79.017 I-7.384 J1.594 E.0693
G1 X102.49 Y78.694 E.0138
G2 X103.125 Y78.647 I.171 J-2.007 E.02306
;TIME_ELAPSED:70.246017
G1 X103.676 Y78.391 E.02197
G1 X103.975 Y78.129 E.01434
G1 X104.289 Y77.654 E.02055
G1 X104.428 Y77.133 E.01945
G1 X104.419 Y76.752 E.01377
G1 X104.764 Y76.967 E.01466
G2 X108.042 Y77.733 I3.201 J-6.31 E.12274
G1 X124.556 Y77.733 E.59623
G1 X125.22 Y77.697 E.02402
G1 X126.154 Y77.53 E.03426
G1 X126.695 Y77.374 E.02033
G1 X127.437 Y77.075 E.02888
G1 X128.007 Y76.753 E.02364
G1 X127.995 Y77.148 E.01428
G1 X128.165 Y77.712 E.02127
G1 X128.513 Y78.196 E.02152
G1 X128.92 Y78.496 E.01825
G1 X129.021 Y78.532 E.00387
G1 X128.907 Y77.918 F9000
;TYPE:Outer wall
G1 F1800
G1 X128.818 Y77.851 E.00401
G1 X128.569 Y77.489 E.01586
G1 X128.452 Y77.063 E.01595
G1 X128.489 Y76.605 E.01658
;WIDTH:0.513137
G1 X128.674 Y76.234 E.0154
G1 X129.052 Y75.871 E.01946
;WIDTH:0.500179
G1 X129.458 Y75.661 E.01653
G1 X129.879 Y75.611 E.01529
;WIDTH:0.500563
G1 X130.314 Y75.708 E.01612
G1 X130.635 Y75.907 E.01365
;WIDTH:0.503433
G1 X130.915 Y76.247 E.01605
G1 X131.039 Y76.534 E.01139
;WIDTH:0.497892
G1 X131.085 Y76.91 E.01358
;WIDTH:0.502934
G1 X131.003 Y77.32 E.01522
G1 X130.808 Y77.668 E.01448
;WIDTH:0.51079
G1 X130.435 Y78.039 E.01944
G1 X129.978 Y78.233 E.01837
;WIDTH:0.499999
G1 X129.52 Y78.227 E.01651
G1 X129.154 Y78.102 E.01398
G1 X128.939 Y77.942 E.00968
G1 E-1.2 F2400
;WIPE_START
G1 F9000
;TIME_ELAPSED:129.737289
G1 X128.818 Y77.851
G1 X128.569 Y77.489
G1 X128.452 Y77.063
G1 X128.489 Y76.605
G1 X128.674 Y76.234
G1 X128.742 Y76.169
;WIPE_END
G1 X128.911 Y79.982 Z.4
G1 X131.471 Y137.641 Z.4
M73 P2 R25
G1 Z.2
M73 P11 R22
G1 E1.2 F1800
;WIDTH:0.49903
G1 X131.489 Y137.685 E.00169
;WIDTH:0.500013
G1 X131.541 Y138.172 E.01769
;WIDTH:0.5028
G1 X131.464 Y138.605 E.01599
G1 X131.364 Y138.845 E.00944
;WIDTH:0.49537
G1 X131.106 Y139.235 E.01671
;WIDTH:0.498597
G1 X130.691 Y139.585 E.01956
;WIDTH:0.499675
G1 X130.241 Y139.77 E.01752
G1 X129.72 Y139.816 E.01887
;WIDTH:0.500325
G1 X129.237 Y139.72 E.0178
G1 X128.797 Y139.48 E.01811
;WIDTH:0.509611
G2 X127.929 Y138.716 I-148.696 J168.198 E.04262
;WIDTH:0.499999
G2 X126.923 Y138.164 I-2.483 J3.329 E.04157
G2 X124.385 Y137.698 I-2.414 J6.006 E.0938
G1 X107.893 Y137.698 E.59548
G2 X104.917 Y138.442 I.062 J6.573 E.11179
;WIDTH:0.503179
G1 X104.386 Y138.793 E.02314
;WIDTH:0.506971
G1 X103.955 Y139.2 E.02172
;WIDTH:0.507108
G1 X103.567 Y139.526 E.0186
G1 X103.261 Y139.688 E.01267
;WIDTH:0.499254
G1 X102.809 Y139.812 E.0169
G1 X102.299 Y139.787 E.01842
;WIDTH:0.494732
G1 X101.893 Y139.658 E.01519
;WIDTH:0.499051
G1 X101.475 Y139.394 E.0178
;WIDTH:0.501655
G1 X101.167 Y139.041 E.01699
;WIDTH:0.504005
;TIME_ELAPSED:189.228577
G1 X100.983 Y138.664 E.01527
G1 X100.914 Y138.37 E.01099
;WIDTH:0.499938
G1 X100.896 Y137.875 E.01788
G1 X101.04 Y137.399 E.01794
;WIDTH:0.493642
G1 X101.293 Y136.996 E.01696
;WIDTH:0.515685
G2 X101.99 Y136.21 I-10.33 J-9.864 E.03923
;WIDTH:0.499999
G2 X102.543 Y135.203 I-3.333 J-2.487 E.04164
G2 X103.009 Y132.808 I-5.942 J-2.399 E.0886
G1 X103.009 Y82.815 E1.80505
G2 X102.888 Y80.931 I-9.633 J-.329 E.0683
M73 P12 R22
G2 X102.281 Y79.211 I-6.838 J1.449 E.06602
G1 X102.007 Y78.791 E.01812
;WIDTH:0.522212
G2 X101.237 Y77.909 I-7.993 J6.2 E.04436
;WIDTH:0.498909
G1 X100.986 Y77.456 E.01866
G1 X100.888 Y76.938 E.01897
G1 X100.948 Y76.422 E.01872
;WIDTH:0.498387
G1 X101.175 Y75.921 E.01979
G1 X101.542 Y75.525 E.01942
;WIDTH:0.500862
G1 X101.956 Y75.281 E.0174
;WIDTH:0.508712
G1 X102.372 Y75.174 E.01581
G1 X102.892 Y75.178 E.01914
;WIDTH:0.504052
G1 X103.302 Y75.298 E.01556
;WIDTH:0.498111
G1 X103.724 Y75.57 E.01805
;WIDTH:0.513056
G2 X104.512 Y76.266 I10.826 J-11.462 E.03904
;WIDTH:0.499999
G1 X104.958 Y76.554 E.01918
G2 X108.042 Y77.276 I2.999 J-5.867 E.11549
G1 X124.538 Y77.276 E.5956
G2 X127.511 Y76.532 I-.065 J-6.572 E.11168
;WIDTH:0.502099
G1 X128.042 Y76.18 E.02308
;WIDTH:0.511141
G3 X128.864 Y75.451 I6.577 J6.589 E.04066
;WIDTH:0.494618
G1 X129.223 Y75.264 E.01443
;WIDTH:0.505626
G1 X129.737 Y75.157 E.01922
G1 X129.96 Y75.164 E.00814
;WIDTH:0.496407
G1 X130.411 Y75.259 E.01651
;TIME_ELAPSED:248.719849
;WIDTH:0.499894
G1 X130.846 Y75.492 E.01781
G1 X131.192 Y75.847 E.01789
;WIDTH:0.499232
G1 X131.434 Y76.279 E.01785
;WIDTH:0.504414
G1 X131.531 Y76.696 E.01561
G1 X131.53 Y77.065 E.01346
;WIDTH:0.504064
G1 X131.409 Y77.535 E.01767
;WIDTH:0.502934
G1 X131.131 Y77.984 E.01918
;WIDTH:0.509824
G2 X130.307 Y78.943 I5.262 J5.36 E.04672
;WIDTH:0.499999
G2 X129.484 Y81.256 I5.277 J3.179 E.08924
G1 X129.419 Y82.165 E.0329
G1 X129.419 Y132.158 E1.80505
G2 X129.54 Y134.043 I9.632 J.329 E.0683
G2 X130.272 Y135.957 I6.129 J-1.249 E.07434
;WIDTH:0.513459
G2 X130.942 Y136.773 I2.945 J-1.736 E.03938
;WIDTH:0.50208
G1 X131.296 Y137.216 E.02058
;WIDTH:0.49903
G1 X131.456 Y137.604 E.01512
G1 E-1.2 F2400
;WIPE_START
G1 F9000
G1 X131.489 Y137.685
G1 X131.541 Y138.172
G1 X131.464 Y138.605
G1 X131.364 Y138.845
G1 X131.106 Y139.235
G1 X130.911 Y139.4
;WIPE_END
G1 X128.15 Y136.765 Z.4
G1 X124.042 Y132.844 Z.4
G1 Z.2
M73 P13 R22
G1 E1.2 F1800
;TYPE:Inner wall
;WIDTH:0.499999
G1 X108.042 Y132.844 E.57769
G1 X107.777 Y132.791 E.00976
G3 X107.357 Y132.248 I.329 J-.689 E.02571
G1 X107.357 Y82.815 E1.7848
G1 X107.444 Y82.481 E.01247
G1 X107.663 Y82.245 E.01163
G1 X107.985 Y82.13 E.01234
G1 X124.385 Y82.13 E.59217
G1 X124.589 Y82.16 E.00742
M73 P14 R22
G1 X124.816 Y82.282 E.00932
;TIME_ELAPSED:308.211121
G1 X125.002 Y82.516 E.0108
G1 X125.071 Y82.815 E.01108
G1 X125.071 Y132.158 E1.78157
G3 X124.765 Y132.729 I-.755 J-.037 E.02416
G1 X124.443 Y132.844 E.01234
G1 X124.082 Y132.844 E.01303
G1 X124.385 Y132.387 F9000
;TYPE:Outer wall
G1 F1800
G1 X108.042 Y132.387 E.59008
G1 X107.883 Y132.322 E.0062
G1 X107.814 Y132.158 E.00643
G1 X107.814 Y82.815 E1.78157
G1 X107.883 Y82.651 E.00643
G1 X108.042 Y82.587 E.0062
G1 X124.453 Y82.597 E.59252
G1 X124.614 Y82.735 E.00766
G1 X124.614 Y132.158 E1.78446
G1 X124.544 Y132.322 E.00643
G1 X124.422 Y132.372 E.00475
G1 E-1.2 F2400
;WIPE_START
G1 F9000
G1 X122.422 Y132.374
;WIPE_END
G1 X121.133 Y128.782 Z.4
G1 X102.982 Y78.199 Z.4
M73 P15 R22
G1 Z.2
M73 P23 R19
G1 E1.2 F1800
G1 X102.869 Y78.24 E.00432
G1 X102.446 Y78.23 E.01528
;WIDTH:0.525218
G1 X102.059 Y78.096 E.01559
G1 X101.658 Y77.713 E.02113
;WIDTH:0.498877
G1 X101.402 Y77.27 E.01844
G1 X101.342 Y76.842 E.01555
;WIDTH:0.498
G1 X101.408 Y76.47 E.01359
G1 X101.582 Y76.135 E.01355
;WIDTH:0.498641
G1 X101.85 Y75.861 E.01382
G1 X102.249 Y75.663 E.01601
;WIDTH:0.496295
G1 X102.737 Y75.617 E.01754
;WIDTH:0.498361
G1 X103.103 Y75.708 E.0136
G1 X103.419 Y75.902 E.01333
;WIDTH:0.511089
G1 X103.758 Y76.243 E.01778
G1 X103.942 Y76.621 E.01554
;WIDTH:0.499999
;TIME_ELAPSED:367.702393
G1 X103.982 Y77.037 E.0151
G1 X103.881 Y77.446 E.0152
G1 X103.657 Y77.8 E.01513
G1 X103.307 Y78.08 E.01617
G1 X103.019 Y78.185 E.01107
G1 E-1.2 F2400
;WIPE_START
G1 F9000
G1 X102.869 Y78.24
G1 X102.446 Y78.23
G1 X102.059 Y78.096
G1 X101.658 Y77.713
G1 X101.431 Y77.321
;WIPE_END
G1 X101.574 Y81.134 Z.4
G1 X103.673 Y137.215 Z.4
M73 P24 R19
G1 Z.2
M73 P33 R17
G1 E1.2 F1800
G1 X103.859 Y137.485 E.01184
G1 X103.976 Y137.925 E.01643
G1 X103.972 Y138.217 E.01054
;WIDTH:0.518736
G1 X103.8 Y138.684 E.01873
G1 X103.505 Y138.996 E.01611
;WIDTH:0.496678
G1 X103.099 Y139.266 E.01749
;WIDTH:0.498229
G1 X102.733 Y139.36 E.0136
G1 X102.356 Y139.338 E.01359
;WIDTH:0.50373
G1 X101.941 Y139.171 E.01627
G1 X101.701 Y138.981 E.01115
;WIDTH:0.496303
G1 X101.481 Y138.674 E.01352
;WIDTH:0.495008
G1 X101.362 Y138.316 E.01348
;WIDTH:0.499877
G1 X101.351 Y137.938 E.01364
G1 X101.456 Y137.576 E.0136
;WIDTH:0.494694
G1 X101.656 Y137.264 E.01323
;WIDTH:0.510286
G1 X102.05 Y136.894 E.01995
G1 X102.332 Y136.774 E.01133
;WIDTH:0.499999
G1 X102.831 Y136.727 E.01807
G1 X103.274 Y136.871 E.01682
G1 X103.61 Y137.123 E.01514
G1 X103.651 Y137.182 E.0026
G1 E-1.2 F2400
;WIPE_START
G1 F9000
;TIME_ELAPSED:427.193665
G1 X103.859 Y137.485
G1 X103.976 Y137.925
G1 X103.972 Y138.217
G1 X103.8 Y138.684
G1 X103.534 Y138.965
;WIPE_END
G1 X107.337 Y138.644 Z.4
G1 X129.403 Y136.777 Z.4
G1 Z.2
M73 P37 R16
G1 E1.2 F1800
G1 X129.431 Y136.764 E.00113
G1 X129.982 Y136.744 E.01988
;WIDTH:0.523491
G1 X130.377 Y136.886 E.01594
G1 X130.655 Y137.135 E.01417
;WIDTH:0.49801
G1 X130.946 Y137.522 E.01744
;WIDTH:0.502641
G1 X131.071 Y137.917 E.01502
G1 X131.075 Y138.257 E.01238
;WIDTH:0.495503
G1 X130.969 Y138.626 E.01371
;WIDTH:0.501264
G1 X130.709 Y138.999 E.01644
G1 X130.423 Y139.212 E.01293
;WIDTH:0.497457
G1 X130.068 Y139.341 E.01357
;WIDTH:0.501599
G1 X129.677 Y139.357 E.01417
G1 X129.326 Y139.264 E.01316
;WIDTH:0.495167
G1 X129.009 Y139.072 E.01325
;WIDTH:0.520224
G1 X128.666 Y138.732 E.01818
G1 X128.487 Y138.359 E.01563
;WIDTH:0.499999
G1 X128.443 Y138.005 E.01286
G1 X128.52 Y137.592 E.01518
G1 X128.726 Y137.228 E.01511
G1 X128.996 Y136.966 E.01359
G1 X129.367 Y136.794 E.01475
G1 E-1.2 F2400
;WIPE_START
G1 F9000
G1 X129.431 Y136.764
G1 X129.982 Y136.744
G1 X130.377 Y136.886
G1 X130.655 Y137.135
G1 X130.946 Y137.522
G1 X130.976 Y137.618
;WIPE_END
G1 X127.235 Y77.317 Z.4
;TIME_ELAPSED:486.684937
G1 Z.4
M73 P47 R13
G1 Z.2
G1 E1.2 F1800
;TYPE:Bottom surface
;WIDTH:0.50136
G1 F4800
G1 X129.22 Y79.302 E.10165
G2 X129.034 Y79.764 I2.373 J1.224 E.01807
G1 X126.926 Y77.656 E.10797
G3 X126.435 Y77.813 I-1.09 J-2.553 E.0187
G1 X128.883 Y80.262 E.1254
G2 X128.762 Y80.789 I2.431 J.838 E.01962
G1 X125.912 Y77.939 E.14596
G1 X125.349 Y78.024 E.02062
G1 X128.672 Y81.347 E.17017
G2 X128.625 Y81.949 I4.478 J.649 E.02188
G1 X124.741 Y78.065 E.19892
G3 X124.104 Y78.075 I-.423 J-6.036 E.0231
G1 X128.619 Y82.591 E.23124
G1 X128.619 Y83.239 E.02348
G1 X123.455 Y78.075 E.26444
G1 X122.807 Y78.075 E.02348
G1 X128.619 Y83.887 E.29765
G1 X128.619 Y84.536 E.02348
G1 X122.159 Y78.075 E.33085
G1 X121.51 Y78.075 E.02348
G1 X128.619 Y85.184 E.36406
G1 X128.619 Y85.832 E.02348
G1 X120.862 Y78.075 E.39727
G1 X120.214 Y78.075 E.02348
G1 X123.926 Y81.788 E.19014
G1 X123.278 Y81.788 E.02348
G1 X119.565 Y78.075 E.19014
G1 X118.917 Y78.075 E.02348
G1 X122.63 Y81.788 E.19014
G1 X121.981 Y81.788 E.02348
G1 X118.268 Y78.075 E.19014
G1 X117.62 Y78.075 E.02348
G1 X121.333 Y81.788 E.19014
G1 X120.684 Y81.788 E.02348
G1 X116.972 Y78.075 E.19014
G1 X116.323 Y78.075 E.02348
G1 X120.036 Y81.788 E.19014
G1 X119.388 Y81.788 E.02348
G1 X115.675 Y78.075 E.19014
G1 X115.027 Y78.075 E.02348
G1 X118.739 Y81.788 E.19014
G1 X118.091 Y81.788 E.02348
G1 X114.378 Y78.075 E.19014
G1 X113.73 Y78.075 E.02348
G1 X117.443 Y81.788 E.19014
G1 X116.794 Y81.788 E.02348
;TIME_ELAPSED:546.176270
G1 X113.081 Y78.075 E.19014
G1 X112.433 Y78.075 E.02348
G1 X116.146 Y81.787 E.19014
G1 X115.497 Y81.787 E.02348
G1 X111.785 Y78.075 E.19014
G1 X111.136 Y78.075 E.02348
G1 X114.849 Y81.787 E.19014
G1 X114.201 Y81.787 E.02348
G1 X110.488 Y78.075 E.19014
G1 X109.84 Y78.075 E.02348
G1 X113.552 Y81.787 E.19014
G1 X112.904 Y81.787 E.02348
G1 X109.191 Y78.075 E.19014
G1 X108.543 Y78.074 E.02348
G1 X112.256 Y81.787 E.19014
G1 X111.607 Y81.787 E.02348
G1 X107.895 Y78.074 E.19014
G3 X107.211 Y78.04 I-.021 J-6.289 E.02479
G1 X110.959 Y81.787 E.19193
G1 X110.31 Y81.787 E.02348
G1 X106.444 Y77.921 E.198
G3 X105.544 Y77.669 I.847 J-4.768 E.03389
G1 X109.662 Y81.787 E.21088
G1 X109.014 Y81.787 E.02348
G1 X104.705 Y77.478 E.22067
G3 X104.517 Y77.939 I-1.627 J-.395 E.01808
G1 X108.365 Y81.787 E.19708
G2 X107.764 Y81.834 I-.179 J1.576 E.02198
G1 X104.256 Y78.326 E.17965
G3 X103.917 Y78.635 I-1.324 J-1.112 E.01667
G1 X107.344 Y82.062 E.17551
G1 X107.145 Y82.311 E.01155
G1 X107.085 Y82.452 E.00552
G1 X103.498 Y78.865 E.18369
G3 X103.067 Y79.006 I-.612 J-1.145 E.01652
G1 X103.133 Y79.148 E.00566
G1 X107.014 Y83.029 E.19878
G1 X107.014 Y83.677 E.02348
G1 X103.529 Y80.192 E.17848
G3 X103.708 Y81.02 I-4.363 J1.377 E.03069
G1 X107.014 Y84.326 E.16932
G1 X107.014 Y84.974 E.02348
G1 X103.787 Y81.747 E.16527
G3 X103.809 Y82.417 I-6.349 J.543 E.02429
G1 X107.014 Y85.622 E.16415
G1 X107.014 Y86.271 E.02348
G1 X103.809 Y83.065 E.16415
G1 X103.809 Y83.714 E.02348
G1 X107.014 Y86.919 E.16415
G1 X107.014 Y87.567 E.02348
G1 X103.809 Y84.362 E.16415
G1 X103.809 Y85.01 E.02348
;TIME_ELAPSED:605.667542
G1 X107.014 Y88.216 E.16415
G1 X107.014 Y88.864 E.02348
G1 X103.809 Y85.659 E.16415
G1 X103.809 Y86.307 E.02348
G1 X107.014 Y89.512 E.16415
G1 X107.014 Y90.161 E.02348
G1 X103.809 Y86.955 E.16415
G1 X103.809 Y87.604 E.02348
G1 X107.014 Y90.809 E.16415
G1 X107.014 Y91.457 E.02348
G1 X103.809 Y88.252 E.16415
G1 X103.809 Y88.9 E.02348
G1 X107.014 Y92.106 E.16415
G1 X107.014 Y92.754 E.02348
G1 X103.809 Y89.549 E.16415
G1 X103.809 Y90.197 E.02348
G1 X107.014 Y93.402 E.16415
G1 X107.014 Y94.051 E.02348
G1 X103.809 Y90.845 E.16415
G1 X103.809 Y91.494 E.02348
G1 X107.014 Y94.699 E.16415
G1 X107.014 Y95.347 E.02348
G1 X103.809 Y92.142 E.16415
G1 X103.809 Y92.79 E.02348
G1 X107.014 Y95.996 E.16415
G1 X107.014 Y96.644 E.02348
G1 X103.809 Y93.439 E.16415
