;TIME:11665.16
;Filament used:30.04820m
;Layer height:0.200
; HEADER_BLOCK_START
; generated by Creality_Print V6.3.1.3548 on 2025-12-24 at 16:15:19
; total layer number: 75
; filament_density: 1.24,1.27
; filament_diameter: 1.75,1.75
; max_z_height: 15.00
; creality_uuid: 866bcb94-7b7a-46ed-ae76-5cb64342916e
; HEADER_BLOCK_END

; MINX = 20.96
; MINY = 54.54
; MINZ = 0.00
; MAXX = 190.46
; MAXY = 180.54
; MAXZ = 15.00

; multicolor_method = 1 
; THUMBNAIL_BLOCK_START

;
; THUMBNAIL_BLOCK_END

; THUMBNAIL_BLOCK_START

;
; THUMBNAIL_BLOCK_END

; external perimeters extrusion width = 0.42mm
; perimeters extrusion width = 0.45mm
; infill extrusion width = 0.45mm
; solid infill extrusion width = 0.42mm
; top infill extrusion width = 0.42mm
; first layer extrusion width = 0.50mm

; EXECUTABLE_BLOCK_START
M73 P0 R194
M201 X5000 Y5000 Z500 E5000
M203 X500 Y500 Z30 E100
M204 P5000 R2500 T5000 ; sets acceleration (P, T) and retract acceleration (R), mm/sec^2
M205 X10.00 Y10.00 Z0.40 E5.00 ; sets the jerk limits, mm/sec
; max_print_temp = 60,227
;TYPE:Custom
M220 S100 ;Reset Feedrate 
M221 S100 ;Reset Flowrate 
 
M140 S60 ;Set final bed temp 
G28 ;Home 
 
G92 E0 ;Reset Extruder 
G1 Z2.0 F3000 ;Move Z Axis up 
M104 S227 ;Set final nozzle temp 
G1 X-2.1 Y20 Z0.28 F5000.0 ;Move to start position 
M190 S60 ;Wait for bed temp to stabilize 
M109 S227 ;Wait for nozzle temp to stabilize 
G1 X-2.1 Y145.0 Z0.28 F1500.0 E15 ;Draw the first line 
G1 X-2.4 Y145.0 Z0.28 F5000.0 ;Move to side a little 
G1 X-2.4 Y20 Z0.28 F1500.0 E30 ;Draw the second line 
G92 E0  ;Reset Extruder 
G1 E-1.0000 F1800 ;Retract a bit 
G1 Z2.0 F3000 ;Move Z Axis up 
G1 E0.0000 F1800
G90
G21
M83 ; use relative distances for extrusion
;filament start gcode
; MANUAL_TOOL_CHANGE T0
G1 E-1.2 F2400
G1 Z.2 F9000
M106 S0
;LAYER_CHANGE
;Z:0.2
;HEIGHT:0.2
;BEFORE_LAYER_CHANGE
;0.2
G92 E0

;_SET_FAN_SPEED_CHANGING_LAYER
M204 P500
M205 X10 Y10
; printing object Body_11_(1) id:0 copy 0
M204 T500
G1 X187.012 Y178.15 Z.4 F9000
G1 Z.2
G1 E1.2 F1800
;TYPE:Inner wall
;WIDTH:0.499999
G1 X187.005 Y178.144 E.00035
G3 X185.94 Y178.616 I-2.14 J-3.385 E.04219
G3 X184.776 Y178.77 I-1.232 J-4.835 E.04251
G1 X26.735 Y178.77 E5.70623
G3 X24.084 Y177.928 I-.095 J-4.296 E.10225
G3 X22.98 Y176.509 I2.679 J-3.223 E.06543
G1 X22.794 Y175.864 E.02424
G1 X22.731 Y175.366 E.01812
G1 X22.729 Y59.852 E4.17075
G1 X22.767 Y59.338 E.01862
G1 X22.955 Y58.66 E.0254
G1 X23.281 Y58.013 E.02613
G1 X23.72 Y57.481 E.02492
G1 X24.101 Y57.142 E.01842
G3 X26.265 Y56.329 I2.542 J3.478 E.08451
G1 X27.122 Y56.313 E.03095
G1 X184.683 Y56.313 E5.68889
G3 X187.332 Y57.154 I.093 J4.295 E.10219
M73 P0 R193
G1 X187.792 Y57.591 E.02291
G1 X188.229 Y58.161 E.02593
G1 X188.508 Y58.784 E.02465
G3 X188.685 Y59.825 I-3.231 J1.085 E.03828
G1 X188.687 Y175.231 E4.16682
G1 X188.649 Y175.745 E.01862
G1 X188.461 Y176.423 E.0254
G1 X188.135 Y177.069 E.02613
G3 X187.438 Y177.827 I-3.271 J-2.311 E.03729
G1 X187.044 Y178.126 E.01785
G1 X187.612 Y178.288 F9000
G1 F1800
G1 X187.593 Y178.305 E.00092
G3 X184.785 Y179.227 I-2.795 J-3.777 E.10856
G1 X26.589 Y179.227 E5.71179
G3 X24.139 Y178.524 I.078 J-4.893 E.09314
G3 X22.335 Y175.898 I2.176 J-3.427 E.11817
G1 X22.274 Y175.383 E.01873
G1 X22.272 Y60.075 E4.16332
G3 X23.824 Y56.778 I3.995 J-.134 E.13661
G3 X26.232 Y55.872 I2.826 J3.861 E.09407
G1 X27.118 Y55.855 E.03199
G1 X184.829 Y55.856 E5.69429
G3 X187.278 Y56.559 I-.08 J4.893 E.09308
G3 X189.081 Y59.185 I-2.176 J3.427 E.1182
G1 X189.142 Y59.825 E.02322
G1 X189.144 Y175.007 E4.15876
G3 X188.022 Y177.921 I-3.995 J.134 E.11582
G1 X187.642 Y178.262 E.01843
G1 X188.155 Y178.419 F9000
G1 F1800
G1 X188.065 Y178.505 E.0045
G3 X184.794 Y179.684 I-3.282 J-3.976 E.12809
G1 X26.471 Y179.684 E5.7164
G1 X25.655 Y179.596 E.02961
G3 X23.895 Y178.911 I1.2 J-5.691 E.06851
G3 X21.886 Y175.984 I2.428 J-3.819 E.13169
G1 X21.817 Y175.4 E.02124
G1 X21.815 Y59.818 E4.17319
G3 X23.351 Y56.578 I4.241 J.025 E.13368
G3 X25.494 Y55.526 I3.205 J3.819 E.08703
G1 X26.199 Y55.415 E.02579
G1 X27.114 Y55.398 E.03302
G1 X184.84 Y55.398 E5.69487
G3 X188.218 Y56.707 I-.054 J5.154 E.13364
G1 X188.668 Y57.191 E.02386
G3 X189.599 Y59.825 I-3.379 J2.676 E.10274
G1 X189.601 Y175.264 E4.16803
G3 X188.516 Y178.072 I-4.241 J-.025 E.11112
G1 X188.184 Y178.391 E.01661
G1 X188.861 Y178.373 F9000
;TIME_ELAPSED:68.968445
;TYPE:Outer wall
G1 F1800
G1 X188.331 Y178.879 E.02648
G3 X184.802 Y180.141 I-3.558 J-4.385 E.13791
G1 X26.615 Y180.141 E5.71151
G3 X22.193 Y177.893 I-.062 J-5.35 E.18623
G3 X21.36 Y175.417 I3.962 J-2.712 E.09551
G1 X21.358 Y59.802 E4.17441
G1 X21.407 Y59.136 E.02409
G1 X21.553 Y58.484 E.02413
G1 X21.796 Y57.854 E.0244
G1 X22.135 Y57.253 E.0249
G3 X26.167 Y54.959 I4.416 J3.07 E.17315
G1 X27.11 Y54.941 E.03405
G1 X184.947 Y54.941 E5.69887
G3 X188.535 Y56.376 I-.183 J5.662 E.14236
G1 X189.025 Y56.904 E.02602
G1 X189.41 Y57.459 E.0244
G3 X190.056 Y59.825 I-3.925 J2.343 E.08967
G1 X190.058 Y175.281 E4.16864
G1 X190.009 Y175.946 E.02409
M73 P0 R192
G1 X189.863 Y176.598 E.02413
G1 X189.62 Y177.229 E.0244
G1 X189.281 Y177.829 E.0249
G1 X188.886 Y178.341 E.02336
G1 E-1.2 F2400
;WIPE_START
G1 F9000
G1 X188.331 Y178.879
G1 X187.927 Y179.185
G1 X187.493 Y179.452
G1 X187.303 Y179.545
;WIPE_END
G1 X185.618 Y56.533 Z.4
G1 Z.4
G1 Z.2
G1 E1.2 F1800
;TYPE:Bottom surface
;WIDTH:0.500003
G1 F4800
G1 X188.266 Y59.181 E.13519
G3 X188.342 Y59.904 I-2.824 J.662 E.0263
G1 X185.109 Y56.671 E.16507
G2 X184.448 Y56.655 I-.503 J7.409 E.02391
G1 X188.342 Y60.55 E.19887
G1 X188.342 Y61.196 E.02334
G1 X183.801 Y56.655 E.23187
G1 X183.155 Y56.655 E.02334
G1 X188.342 Y61.843 E.26488
G1 X188.342 Y62.489 E.02334
G1 X182.508 Y56.655 E.29789
G1 X181.862 Y56.655 E.02334
G1 X188.342 Y63.136 E.3309
G1 X188.342 Y63.782 E.02334
G1 X181.216 Y56.655 E.3639
G1 X180.569 Y56.655 E.02334
G1 X188.342 Y64.429 E.39691
G1 X188.342 Y65.075 E.02334
G1 X179.923 Y56.655 E.42992
G1 X179.276 Y56.655 E.02334
G1 X188.342 Y65.721 E.46293
G1 X188.342 Y66.368 E.02334
G1 X178.63 Y56.655 E.49594
G1 X177.983 Y56.655 E.02334
G1 X188.342 Y67.014 E.52894
G1 X188.342 Y67.661 E.02334
G1 X177.337 Y56.655 E.56195
G1 X176.691 Y56.655 E.02334
G1 X188.342 Y68.307 E.59496
G1 X188.342 Y68.954 E.02334
G1 X176.044 Y56.655 E.62797
G1 X175.398 Y56.655 E.02334
G1 X188.342 Y69.6 E.66097
G1 X188.342 Y70.246 E.02334
G1 X174.751 Y56.655 E.69398
G1 X174.105 Y56.655 E.02334
G1 X188.342 Y70.893 E.72699
G1 X188.342 Y71.539 E.02334
G1 X173.459 Y56.655 E.76
G1 X172.812 Y56.655 E.02334
G1 X188.342 Y72.186 E.793
G1 X188.342 Y72.832 E.02334
G1 X172.166 Y56.655 E.82601
G1 X171.519 Y56.655 E.02334
G1 X188.342 Y73.478 E.85902
G1 X188.342 Y74.125 E.02334
G1 X170.873 Y56.655 E.89203
;TIME_ELAPSED:127.182152
G1 X170.226 Y56.655 E.02334
G1 X188.342 Y74.771 E.92504
G1 X188.342 Y75.418 E.02334
G1 X169.58 Y56.655 E.95804
G1 X168.934 Y56.655 E.02334
G1 X188.342 Y76.064 E.99105
G1 X188.342 Y76.711 E.02334
G1 X168.287 Y56.655 E1.02406
G1 X167.641 Y56.655 E.02334
G1 X188.342 Y77.357 E1.05707
G1 X188.342 Y78.003 E.02334
G1 X166.994 Y56.655 E1.09007
G1 X166.348 Y56.655 E.02334
G1 X188.342 Y78.65 E1.12308
G1 X188.343 Y79.296 E.02334
G1 X165.702 Y56.655 E1.15609
G1 X165.055 Y56.655 E.02334
G1 X188.343 Y79.943 E1.1891
G1 X188.343 Y80.589 E.02334
G1 X164.409 Y56.655 E1.2221
G1 X163.762 Y56.655 E.02334
G1 X188.343 Y81.236 E1.25511
G1 X188.343 Y81.882 E.02334
G1 X163.116 Y56.655 E1.28812
G1 X162.47 Y56.655 E.02334
G1 X188.343 Y82.528 E1.32113
G1 X188.343 Y83.175 E.02334
G1 X161.823 Y56.655 E1.35414
G1 X161.177 Y56.655 E.02334
G1 X188.343 Y83.821 E1.38714
G1 X188.343 Y84.468 E.02334
G1 X160.53 Y56.655 E1.42015
G1 X159.884 Y56.655 E.02334
G1 X188.343 Y85.114 E1.45316
G1 X188.343 Y85.761 E.02334
G1 X159.237 Y56.655 E1.48617
G1 X158.591 Y56.655 E.02334
G1 X188.343 Y86.407 E1.51917
G1 X188.343 Y87.053 E.02334
G1 X157.945 Y56.655 E1.55218
G1 X157.298 Y56.655 E.02334
G1 X188.343 Y87.7 E1.58519
G1 X188.343 Y88.346 E.02334
G1 X156.652 Y56.655 E1.6182
G1 X156.005 Y56.655 E.02334
G1 X188.343 Y88.993 E1.65121
G1 X188.343 Y89.639 E.02334
G1 X155.359 Y56.655 E1.68421
G1 X154.713 Y56.655 E.02334
G1 X188.343 Y90.286 E1.71722
G1 X188.343 Y90.932 E.02334
G1 X154.066 Y56.655 E1.75023
G1 X153.42 Y56.655 E.02334
G1 X188.343 Y91.578 E1.78324
G1 X188.343 Y92.225 E.02334
G1 X152.773 Y56.655 E1.81624
G1 X152.127 Y56.655 E.02334
G1 X188.343 Y92.871 E1.84925
G1 X188.343 Y93.518 E.02334
G1 X151.481 Y56.655 E1.88226
G1 X150.834 Y56.655 E.02334
M73 P1 R192
G1 X188.343 Y94.164 E1.91527
G1 X188.343 Y94.81 E.02334
G1 X150.188 Y56.655 E1.94827
G1 X149.541 Y56.655 E.02334
G1 X188.343 Y95.457 E1.98128
G1 X188.343 Y96.103 E.02334
G1 X148.895 Y56.655 E2.01429
G1 X148.248 Y56.655 E.02334
G1 X188.343 Y96.75 E2.0473
G1 X188.343 Y97.396 E.02334
G1 X147.602 Y56.655 E2.08031
G1 X146.956 Y56.655 E.02334
G1 X188.343 Y98.043 E2.11331
G1 X188.343 Y98.689 E.02334
G1 X146.309 Y56.655 E2.14632
G1 X145.663 Y56.655 E.02334
G1 X188.343 Y99.335 E2.17933
G1 X188.343 Y99.982 E.02334
G1 X145.016 Y56.655 E2.21234
G1 X144.37 Y56.655 E.02334
G1 X188.343 Y100.628 E2.24534
G1 X188.343 Y101.275 E.02334
G1 X143.724 Y56.655 E2.27835
G1 X143.077 Y56.655 E.02334
G1 X188.343 Y101.921 E2.31136
G1 X188.343 Y102.568 E.02334
;TIME_ELAPSED:185.395859
G1 X142.431 Y56.655 E2.34437
G1 X141.784 Y56.655 E.02334
G1 X188.343 Y103.214 E2.37737
G1 X188.343 Y103.86 E.02334
G1 X141.138 Y56.655 E2.41038
G1 X140.491 Y56.655 E.02334
G1 X188.343 Y104.507 E2.44339
G1 X188.343 Y105.153 E.02334
G1 X139.845 Y56.655 E2.4764
G1 X139.199 Y56.655 E.02334
G1 X188.343 Y105.8 E2.50941
G1 X188.343 Y106.446 E.02334
G1 X138.552 Y56.655 E2.54241
G1 X137.906 Y56.655 E.02334
G1 X188.343 Y107.093 E2.57542
G1 X188.343 Y107.739 E.02334
G1 X137.259 Y56.655 E2.60843
G1 X136.613 Y56.655 E.02334
G1 X188.343 Y108.385 E2.64144
G1 X188.343 Y109.032 E.02334
G1 X135.967 Y56.655 E2.67444
G1 X135.32 Y56.655 E.02334
G1 X188.343 Y109.678 E2.70745
G1 X188.343 Y110.325 E.02334
G1 X134.674 Y56.655 E2.74046
G1 X134.027 Y56.655 E.02334
G1 X188.343 Y110.971 E2.77347
G1 X188.343 Y111.618 E.02334
G1 X133.381 Y56.655 E2.80647
G1 X132.735 Y56.655 E.02334
G1 X188.343 Y112.264 E2.83948
G1 X188.343 Y112.91 E.02334
G1 X132.088 Y56.655 E2.87249
G1 X131.442 Y56.655 E.02334
M73 P1 R191
G1 X188.343 Y113.557 E2.9055
G1 X188.343 Y114.203 E.02334
G1 X130.795 Y56.655 E2.93851
G1 X130.149 Y56.655 E.02334
G1 X188.343 Y114.85 E2.97151
G1 X188.343 Y115.496 E.02334
G1 X129.502 Y56.655 E3.00452
G1 X128.856 Y56.655 E.02334
G1 X188.343 Y116.142 E3.03753
G1 X188.343 Y116.789 E.02334
G1 X128.21 Y56.655 E3.07054
G1 X127.563 Y56.655 E.02334
G1 X188.343 Y117.435 E3.10354
G1 X188.343 Y118.082 E.02334
G1 X126.917 Y56.655 E3.13655
G1 X126.27 Y56.655 E.02334
G1 X188.343 Y118.728 E3.16956
G1 X188.343 Y119.375 E.02334
G1 X125.624 Y56.655 E3.20257
G1 X124.978 Y56.655 E.02334
G1 X188.343 Y120.021 E3.23557
G1 X188.343 Y120.667 E.02334
G1 X124.331 Y56.655 E3.26858
G1 X123.685 Y56.655 E.02334
G1 X188.343 Y121.314 E3.30159
G1 X188.343 Y121.96 E.02334
G1 X123.038 Y56.655 E3.3346
G1 X122.392 Y56.655 E.02334
G1 X188.343 Y122.607 E3.36761
G1 X188.343 Y123.253 E.02334
G1 X121.746 Y56.655 E3.40061
G1 X121.099 Y56.655 E.02334
G1 X188.343 Y123.9 E3.43362
G1 X188.343 Y124.546 E.02334
G1 X120.453 Y56.655 E3.46663
G1 X119.806 Y56.655 E.02334
G1 X188.343 Y125.192 E3.49964
G1 X188.343 Y125.839 E.02334
G1 X119.16 Y56.655 E3.53264
G1 X118.513 Y56.655 E.02334
G1 X188.343 Y126.485 E3.56565
G1 X188.343 Y127.132 E.02334
G1 X117.867 Y56.655 E3.59866
G1 X117.221 Y56.655 E.02334
G1 X188.343 Y127.778 E3.63167
G1 X188.343 Y128.425 E.02334
G1 X116.574 Y56.655 E3.66467
G1 X115.928 Y56.655 E.02334
G1 X188.343 Y129.071 E3.69768
G1 X188.343 Y129.717 E.02334
G1 X115.281 Y56.655 E3.73069
G1 X114.635 Y56.655 E.02334
G1 X188.343 Y130.364 E3.7637
;TIME_ELAPSED:243.609558
G1 X188.343 Y131.01 E.02334
G1 X113.989 Y56.655 E3.79671
G1 X113.342 Y56.655 E.02334
G1 X188.343 Y131.657 E3.82971
G1 X188.343 Y132.303 E.02334
G1 X112.696 Y56.655 E3.86272
G1 X112.049 Y56.655 E.02334
G1 X188.343 Y132.95 E3.89573
G1 X188.343 Y133.596 E.02334
G1 X111.403 Y56.655 E3.92874
G1 X110.756 Y56.655 E.02334
G1 X188.343 Y134.242 E3.96174
G1 X188.343 Y134.889 E.02334
G1 X110.11 Y56.655 E3.99475
G1 X109.464 Y56.655 E.02334
G1 X188.343 Y135.535 E4.02776
G1 X188.343 Y136.182 E.02334
G1 X108.817 Y56.655 E4.06077
G1 X108.171 Y56.655 E.02334
G1 X188.343 Y136.828 E4.09378
G1 X188.343 Y137.474 E.02334
G1 X107.524 Y56.655 E4.12678
G1 X106.878 Y56.655 E.02334
G1 X188.344 Y138.121 E4.15979
G1 X188.344 Y138.767 E.02334
G1 X106.232 Y56.655 E4.1928
G1 X105.585 Y56.655 E.02334
G1 X188.344 Y139.414 E4.22581
G1 X188.344 Y140.06 E.02334
G1 X104.939 Y56.655 E4.25881
G1 X104.292 Y56.655 E.02334
G1 X188.344 Y140.707 E4.29182
G1 X188.344 Y141.353 E.02334
M73 P1 R190
G1 X103.646 Y56.655 E4.32483
G1 X103 Y56.655 E.02334
G1 X188.344 Y141.999 E4.35784
G1 X188.344 Y142.646 E.02334
G1 X102.353 Y56.655 E4.39084
G1 X101.707 Y56.655 E.02334
G1 X188.344 Y143.292 E4.42385
G1 X188.344 Y143.939 E.02334
G1 X101.06 Y56.655 E4.45686
G1 X100.414 Y56.655 E.02334
G1 X188.344 Y144.585 E4.48987
G1 X188.344 Y145.232 E.02334
G1 X99.767 Y56.655 E4.52288
G1 X99.121 Y56.655 E.02334
G1 X188.344 Y145.878 E4.55588
G1 X188.344 Y146.524 E.02334
G1 X98.475 Y56.655 E4.58889
G1 X97.828 Y56.655 E.02334
G1 X188.344 Y147.171 E4.6219
G1 X188.344 Y147.817 E.02334
G1 X97.182 Y56.655 E4.65491
G1 X96.535 Y56.655 E.02334
G1 X188.344 Y148.464 E4.68791
G1 X188.344 Y149.11 E.02334
G1 X95.889 Y56.655 E4.72092
G1 X95.243 Y56.655 E.02334
G1 X188.344 Y149.757 E4.75393
G1 X188.344 Y150.403 E.02334
G1 X94.596 Y56.655 E4.78694
G1 X93.95 Y56.655 E.02334
G1 X188.344 Y151.049 E4.81994
G1 X188.344 Y151.696 E.02334
M73 P2 R190
G1 X93.303 Y56.655 E4.85295
G1 X92.657 Y56.655 E.02334
G1 X188.344 Y152.342 E4.88596
G1 X188.344 Y152.989 E.02334
G1 X92.011 Y56.655 E4.91897
G1 X91.364 Y56.655 E.02334
G1 X188.344 Y153.635 E4.95198
G1 X188.344 Y154.282 E.02334
G1 X90.718 Y56.655 E4.98498
G1 X90.071 Y56.655 E.02334
G1 X188.344 Y154.928 E5.01799
G1 X188.344 Y155.574 E.02334
G1 X89.425 Y56.655 E5.051
G1 X88.778 Y56.655 E.02334
G1 X188.344 Y156.221 E5.08401
G1 X188.344 Y156.867 E.02334
G1 X88.132 Y56.655 E5.11701
G1 X87.486 Y56.655 E.02334
G1 X188.344 Y157.514 E5.15002
G1 X188.344 Y158.16 E.02334
G1 X86.839 Y56.655 E5.18303
G1 X86.193 Y56.655 E.02334
;TIME_ELAPSED:301.823242
G1 X188.344 Y158.806 E5.21604
G1 X188.344 Y159.453 E.02334
G1 X85.546 Y56.655 E5.24904
G1 X84.9 Y56.655 E.02334
G1 X188.344 Y160.099 E5.28205
G1 X188.344 Y160.746 E.02334
G1 X84.254 Y56.655 E5.31506
G1 X83.607 Y56.655 E.02334
G1 X188.344 Y161.392 E5.34807
G1 X188.344 Y162.039 E.02334
G1 X82.961 Y56.655 E5.38108
G1 X82.314 Y56.655 E.02334
M73 P2 R189
G1 X188.344 Y162.685 E5.41408
G1 X188.344 Y163.331 E.02334
G1 X81.668 Y56.655 E5.44709
G1 X81.021 Y56.655 E.02334
G1 X188.344 Y163.978 E5.4801
G1 X188.344 Y164.624 E.02334
G1 X80.375 Y56.655 E5.51311
G1 X79.729 Y56.655 E.02334
G1 X188.344 Y165.271 E5.54611
G1 X188.344 Y165.917 E.02334
G1 X79.082 Y56.655 E5.57912
G1 X78.436 Y56.655 E.02334
G1 X188.344 Y166.564 E5.61213
G1 X188.344 Y167.21 E.02334
G1 X77.789 Y56.655 E5.64514
G1 X77.143 Y56.655 E.02334
G1 X188.344 Y167.856 E5.67814
G1 X188.344 Y168.503 E.02334
G1 X76.497 Y56.655 E5.71115
G1 X75.85 Y56.655 E.02334
G1 X188.344 Y169.149 E5.74416
G1 X188.344 Y169.796 E.02334
G1 X75.204 Y56.655 E5.77717
G1 X74.557 Y56.655 E.02334
G1 X188.344 Y170.442 E5.81018
G1 X188.344 Y171.089 E.02334
G1 X73.911 Y56.655 E5.84318
G1 X73.265 Y56.655 E.02334
G1 X188.344 Y171.735 E5.87619
G1 X188.344 Y172.381 E.02334
G1 X72.618 Y56.655 E5.9092
G1 X71.972 Y56.655 E.02334
G1 X188.344 Y173.028 E5.94221
G1 X188.344 Y173.674 E.02334
G1 X71.325 Y56.655 E5.97521
G1 X70.679 Y56.655 E.02334
G1 X188.344 Y174.321 E6.00822
G1 X188.344 Y174.967 E.02334
G1 X70.032 Y56.655 E6.04123
G1 X69.386 Y56.655 E.02334
G1 X188.317 Y175.586 E6.07286
G1 X188.309 Y175.695 E.00392
G1 X188.209 Y176.125 E.01594
G1 X68.74 Y56.655 E6.10033
G1 X68.093 Y56.655 E.02334
G1 X188.018 Y176.58 E6.1236
G3 X187.771 Y176.98 I-1.509 J-.655 E.01702
G1 X67.447 Y56.655 E6.14401
