;TIME:179.49
;Filament used:0.20532m
;Layer height:0.200
; HEADER_BLOCK_START
; generated by Creality_Print V6.3.1.3548 on 2025-12-21 at 16:26:36
; total layer number: 7
; filament_density: 1.24,1.27
; filament_diameter: 1.75,1.75
; max_z_height: 1.40
; creality_uuid: ee49772a-c0d3-4d41-bee6-c7eefb7e3b43
; HEADER_BLOCK_END

; MINX = 36.03
; MINY = 61.20
; MINZ = 0.00
; MAXX = 127.97
; MAXY = 79.32
; MAXZ = 1.50

; multicolor_method = 0 
; THUMBNAIL_BLOCK_START

;
; THUMBNAIL_BLOCK_END

; THUMBNAIL_BLOCK_START

;
; THUMBNAIL_BLOCK_END

; external perimeters extrusion width = 0.42mm
; perimeters extrusion width = 0.45mm
; infill extrusion width = 0.45mm
; solid infill extrusion width = 0.42mm
; top infill extrusion width = 0.42mm
; first layer extrusion width = 0.50mm

; external perimeters extrusion width = 0.42mm
; perimeters extrusion width = 0.45mm
; infill extrusion width = 0.45mm
; solid infill extrusion width = 0.42mm
; top infill extrusion width = 0.42mm
; first layer extrusion width = 0.50mm

; external perimeters extrusion width = 0.42mm
; perimeters extrusion width = 0.45mm
; infill extrusion width = 0.45mm
; solid infill extrusion width = 0.42mm
; top infill extrusion width = 0.42mm
; first layer extrusion width = 0.50mm

; external perimeters extrusion width = 0.42mm
; perimeters extrusion width = 0.45mm
; infill extrusion width = 0.45mm
; solid infill extrusion width = 0.42mm
; top infill extrusion width = 0.42mm
; first layer extrusion width = 0.50mm

; external perimeters extrusion width = 0.42mm
; perimeters extrusion width = 0.45mm
; infill extrusion width = 0.45mm
; solid infill extrusion width = 0.42mm
; top infill extrusion width = 0.42mm
; first layer extrusion width = 0.50mm

; external perimeters extrusion width = 0.42mm
; perimeters extrusion width = 0.45mm
; infill extrusion width = 0.45mm
; solid infill extrusion width = 0.42mm
; top infill extrusion width = 0.42mm
; first layer extrusion width = 0.50mm

; external perimeters extrusion width = 0.42mm
; perimeters extrusion width = 0.45mm
; infill extrusion width = 0.45mm
; solid infill extrusion width = 0.42mm
; top infill extrusion width = 0.42mm
; first layer extrusion width = 0.50mm

; EXECUTABLE_BLOCK_START
M73 P0 R2
M201 X5000 Y5000 Z500 E5000
M203 X500 Y500 Z30 E100
M204 P5000 R2500 T5000 ; sets acceleration (P, T) and retract acceleration (R), mm/sec^2
M205 X10.00 Y10.00 Z0.40 E5.00 ; sets the jerk limits, mm/sec
; max_print_temp = 57,225
;TYPE:Custom
M220 S100 ;Reset Feedrate 
M221 S100 ;Reset Flowrate 
 
M140 S57 ;Set final bed temp 
G28 ;Home 
 
G92 E0 ;Reset Extruder 
G1 Z2.0 F3000 ;Move Z Axis up 
M104 S225 ;Set final nozzle temp 
G1 X-2.1 Y20 Z0.28 F5000.0 ;Move to start position 
M190 S57 ;Wait for bed temp to stabilize 
M109 S225 ;Wait for nozzle temp to stabilize 
G1 X-2.1 Y145.0 Z0.28 F1500.0 E15 ;Draw the first line 
G1 X-2.4 Y145.0 Z0.28 F5000.0 ;Move to side a little 
M73 P3 R2
G1 X-2.4 Y20 Z0.28 F1500.0 E30 ;Draw the second line 
G92 E0  ;Reset Extruder 
G1 E-1.0000 F1800 ;Retract a bit 
M73 P5 R2
G1 Z2.0 F3000 ;Move Z Axis up 
G1 E0.0000 F1800
G90
G21
M83 ; use relative distances for extrusion
;filament start gcode
; MANUAL_TOOL_CHANGE T0
G1 E-1.2 F2400
G1 Z.2 F9000
M106 S0
;LAYER_CHANGE
;Z:0.2
;HEIGHT:0.2
;BEFORE_LAYER_CHANGE
;0.2
G92 E0

;_SET_FAN_SPEED_CHANGING_LAYER
M204 P500
M205 X10 Y10
; printing object Body_03 id:0 copy 0
M204 T500
G1 X37.166 Y70.977 Z.4 F9000
G1 Z.2
G1 E1.2 F1800
;TYPE:Inner wall
;WIDTH:0.383394
G1 X37.166 Y78.162 E.19325
M73 P6 R2
G1 X36.825 Y78.162 E.00916
G1 X36.825 Y70.818 E.19751
;WIDTH:0.422263
G1 X36.845 Y70.45 E.01104
;WIDTH:0.461131
G1 X36.864 Y70.082 E.01218
;WIDTH:0.499999
G2 X36.864 Y68.782 I-10.669 J-.65 E.04696
;WIDTH:0.461131
G1 X36.845 Y68.585 E.00655
;WIDTH:0.422263
G1 X36.825 Y68.388 E.00594
;WIDTH:0.383394
G1 X36.825 Y63.76 E.12448
G1 X37.166 Y63.76 E.00916
G1 X37.166 Y68.388 E.12448
;WIDTH:0.422263
G1 X37.202 Y68.537 E.00459
;WIDTH:0.461131
G1 X37.237 Y68.686 E.00506
;WIDTH:0.499999
G1 X37.273 Y68.835 E.00553
G1 X38.453 Y70.206 E.06532
G1 X37.785 Y70.092 E.02449
G1 X37.552 Y70.176 E.00896
G1 X37.423 Y70.39 E.00901
;WIDTH:0.461131
G1 X37.294 Y70.604 E.00825
;WIDTH:0.422263
G1 X37.166 Y70.818 E.00748
;WIDTH:0.383394
G1 X37.166 Y70.937 E.00319
G1 E-1.2 F2400
;WIPE_START
G1 F9000
G1 X37.166 Y72.937
;WIPE_END
G1 X40.072 Y70.464 Z.4
G1 X41.597 Y69.167 Z.4
G1 Z.2
G1 E1.2 F1800
;WIDTH:0.393545
G1 X44.935 Y64.332 E.16272
;WIDTH:0.405401
G1 X45.348 Y63.742 E.02062
G1 X45.86 Y63.707 E.01471
G1 X45.515 Y64.125 E.01554
;WIDTH:0.400279
G1 X45.217 Y64.54 E.01443
;WIDTH:0.393545
G1 X40.563 Y71.244 E.22602
;WIDTH:0.420232
G1 X40.437 Y71.394 E.00585
;WIDTH:0.468187
M73 P7 R2
G1 X40.312 Y71.545 E.00659
;WIDTH:0.516142
G1 X40.186 Y71.696 E.00733
;WIDTH:0.516368
G1 X40.303 Y72.386 E.02616
G1 X39.783 Y71.764 E.0303
;WIDTH:0.516142
G1 X39.336 Y71.23 E.02606
G1 X39.918 Y71.381 E.0225
G1 X39.99 Y71.333 E.00321
;WIDTH:0.471738
G1 X40.062 Y71.286 E.00291
;WIDTH:0.427333
G1 X40.178 Y71.17 E.005
;WIDTH:0.399805
G1 X40.295 Y71.053 E.00464
;WIDTH:0.393545
G1 X41.574 Y69.2 E.06237
G1 E-1.2 F2400
;WIPE_START
G1 F9000
G1 X42.71 Y67.554
;WIPE_END
G1 X39.453 Y69.542 Z.4
G1 X37.715 Y70.603 Z.4
G1 Z.2
G1 E1.2 F1800
;TYPE:Outer wall
;WIDTH:0.499999
G1 X37.565 Y70.818 E.00947
G1 X37.565 Y78.561 E.27956
G1 X36.427 Y78.561 E.04109
G1 X36.427 Y63.361 E.54881
G1 X37.565 Y63.361 E.04109
G1 X37.565 Y68.388 E.1815
G1 X37.62 Y68.537 E.00574
M73 P8 R2
G1 X39.609 Y70.849 E.11014
G1 X39.827 Y70.924 E.00833
G1 X39.97 Y70.831 E.00616
G1 X45.122 Y63.347 E.32805
G2 X46.297 Y63.222 I-.709 J-12.217 E.04265
G1 X46.775 Y63.231 E.01728
G1 X46.531 Y63.618 E.0165
G2 X45.548 Y64.771 I4.856 J5.133 E.05482
G1 X40.62 Y71.85 E.31144
G1 X40.662 Y72.089 E.00876
G1 X45.191 Y77.375 E.25132
G2 X46.24 Y78.382 I14.546 J-14.111 E.05252
G1 X46.487 Y78.693 E.01436
G1 X46.124 Y78.71 E.01314
G2 X44.873 Y78.574 I-2.713 J19.18 E.04544
G1 X38.194 Y70.589 E.37587
G1 X37.941 Y70.521 E.00947
G1 X37.753 Y70.59 E.00723
G1 X38.453 Y70.206 F9000
;TYPE:Inner wall
;WIDTH:0.499278
M73 P9 R2
G1 F1800
G1 X38.541 Y70.3 E.00461
;WIDTH:0.504432
G1 X39.261 Y71.149 E.0406
;WIDTH:0.51479
G1 X39.336 Y71.23 E.00411
G1 E-1.2 F2400
;WIPE_START
G1 F9000
G1 X39.261 Y71.149
G1 X38.541 Y70.3
G1 X38.453 Y70.206
;WIPE_END
G1 X40.925 Y73.114 Z.4
G1 X45.129 Y78.06 Z.4
G1 Z.2
G1 E1.2 F1800
;WIDTH:0.639402
G1 X44.8 Y77.698 E.02303
;WIDTH:0.598718
G1 X42.554 Y75.045 E.15261
;WIDTH:0.557567
G1 X40.309 Y72.392 E.14131
;WIDTH:0.516416
G1 X40.303 Y72.386 E.00031
G1 E-1.2 F2400
;WIPE_START
G1 F9000
G1 X40.309 Y72.392
G1 X41.595 Y73.912
;WIPE_END
G1 X37.844 Y69.924 Z.4
G1 Z.4
G1 Z.2
G1 E1.2 F1800
;TYPE:Bottom surface
;WIDTH:0.591415
G1 F4800
G1 X37.226 Y69.306 E.03786
G3 X37.192 Y70.047 I-3.526 J.207 E.0322
G1 X37.408 Y70.264 E.01326
; stop printing object Body_03 id:0 copy 0
; printing object Body_09 id:0 copy 0
G1 E-1.2 F2400
;WIPE_START
G1 F9000
G1 X37.192 Y70.047
G1 X37.226 Y69.72
G1 X37.226 Y69.306
G1 X37.844 Y69.924
;WIPE_END
G1 X41.649 Y70.216 Z.4
G1 X55.765 Y71.3 Z.4
G1 Z.2
G1 E1.2 F1800
;TYPE:Inner wall
;WIDTH:0.444496
G1 X55.754 Y71.299 E.00033
;WIDTH:0.408711
G1 X55.377 Y71.268 E.01093
;WIDTH:0.372926
G1 X54.822 Y71.254 E.01447
;WIDTH:0.362915
G1 X51.991 Y71.255 E.07156
;WIDTH:0.403024
G1 X51.902 Y71.265 E.00256
;WIDTH:0.445187
G1 X51.813 Y71.274 E.00286
;WIDTH:0.48735
G1 X51.723 Y71.284 E.00316
;WIDTH:0.529513
G1 X51.634 Y71.294 E.00346
;WIDTH:0.571676
G1 X51.544 Y71.304 E.00376
G1 X51.499 Y71.446 E.00622
;WIDTH:0.524606
G1 X51.454 Y71.587 E.00566
;WIDTH:0.477536
G1 X51.408 Y71.729 E.00511
;WIDTH:0.430466
G1 X51.363 Y71.871 E.00456
;WIDTH:0.383396
G1 X51.363 Y77.239 E.14438
;WIDTH:0.424685
G1 X51.404 Y77.396 E.00489
;WIDTH:0.465973
G1 X51.445 Y77.553 E.00542
;WIDTH:0.507261
G1 X51.486 Y77.709 E.00594
G1 X51.655 Y77.758 E.00643
;WIDTH:0.458461
G1 X51.823 Y77.807 E.00575
;WIDTH:0.409661
G1 X51.991 Y77.855 E.00508
;WIDTH:0.363139
G1 X55.102 Y77.851 E.07868
G1 X55.753 Y77.797 E.01653
;WIDTH:0.366964
G1 X56.491 Y77.654 E.01926
;WIDTH:0.380607
G1 X57.188 Y77.393 E.01983
;WIDTH:0.409019
G1 X57.83 Y76.981 E.02207
;WIDTH:0.423689
G1 X58.281 Y76.492 E.02002
;WIDTH:0.435004
G1 X58.536 Y76.059 E.01554
;WIDTH:0.441278
G2 X58.79 Y75.212 I-4.203 J-1.718 E.02787
;WIDTH:0.430816
G1 X58.837 Y74.464 E.02296
;WIDTH:0.423775
G1 X58.77 Y73.848 E.01864
;WIDTH:0.402677
G1 X58.657 Y73.473 E.01115
;WIDTH:0.420169
M73 P10 R2
G1 X58.655 Y73.393 E.00237
;WIDTH:0.466897
G1 X58.653 Y73.313 E.00267
;WIDTH:0.513626
G1 X58.651 Y73.234 E.00296
;WIDTH:0.560354
G1 X58.649 Y73.154 E.00325
;WIDTH:0.607082
G1 X58.647 Y73.075 E.00355
G1 X58.706 Y73.125 E.00346
;WIDTH:0.562592
G1 X58.766 Y73.175 E.00319
;WIDTH:0.518101
G1 X58.825 Y73.225 E.00292
;WIDTH:0.47361
G1 X58.884 Y73.275 E.00264
;WIDTH:0.429119
G1 X58.944 Y73.326 E.00237
;WIDTH:0.402389
G1 X59.114 Y73.758 E.01321
;WIDTH:0.428121
G1 X59.206 Y74.262 E.01559
;WIDTH:0.433593
G1 X59.221 Y74.748 E.01499
G1 X59.14 Y75.442 E.02157
;WIDTH:0.430576
G1 X58.939 Y76.108 E.02131
;WIDTH:0.435045
G1 X58.694 Y76.573 E.01627
G1 X58.468 Y76.864 E.0114
;WIDTH:0.418889
G1 X58.083 Y77.246 E.01611
;WIDTH:0.409019
G1 X57.663 Y77.529 E.01464
;WIDTH:0.402228
G1 X57.176 Y77.769 E.01542
;WIDTH:0.379242
G1 X56.596 Y77.96 E.01624
;WIDTH:0.366964
G1 X56.127 Y78.06 E.01225
;WIDTH:0.366692
G1 X55.618 Y78.131 E.01317
;WIDTH:0.363139
G1 X54.726 Y78.172 E.02259
G1 X51.99 Y78.173 E.06919
;WIDTH:0.409661
G1 X51.688 Y78.149 E.00878
;WIDTH:0.458461
G1 X51.386 Y78.124 E.00994
;WIDTH:0.507261
G1 X51.084 Y78.1 E.01111
G2 X51.064 Y77.658 I-2.252 J-.116 E.01625
;WIDTH:0.465973
G1 X51.043 Y77.449 E.00704
;WIDTH:0.424685
G1 X51.022 Y77.239 E.00635
;WIDTH:0.383396
G1 X51.022 Y71.871 E.14438
;WIDTH:0.430466
G1 X51.046 Y71.677 E.00598
;WIDTH:0.477536
G1 X51.07 Y71.483 E.0067
;WIDTH:0.524606
G1 X51.093 Y71.29 E.00743
;WIDTH:0.571676
G2 X51.093 Y70.902 I-.786 J-.194 E.01634
;WIDTH:0.524606
G1 X51.07 Y70.708 E.00743
;WIDTH:0.477536
G1 X51.046 Y70.515 E.0067
;WIDTH:0.430466
G1 X51.022 Y70.321 E.00598
;WIDTH:0.383396
G1 X51.022 Y64.682 E.15165
;WIDTH:0.424684
G1 X51.043 Y64.395 E.00868
;WIDTH:0.465972
G1 X51.064 Y64.108 E.00961
;WIDTH:0.50726
G1 X51.084 Y63.821 E.01055
G2 X51.541 Y63.797 I.116 J-2.114 E.01681
;WIDTH:0.45846
G1 X51.766 Y63.773 E.00741
;WIDTH:0.40966
G1 X51.99 Y63.748 E.00654
;WIDTH:0.360859
G1 X55.298 Y63.748 E.08307
;WIDTH:0.360995
G3 X56.429 Y63.825 I.012 J8.186 E.02851
;WIDTH:0.369441
G1 X57.342 Y64.028 E.02413
;WIDTH:0.373753
G1 X57.973 Y64.274 E.01769
;WIDTH:0.390394
G1 X58.428 Y64.529 E.01432
;WIDTH:0.404027
G1 X58.826 Y64.833 E.01427
;WIDTH:0.408869
G1 X59.249 Y65.295 E.0181
;WIDTH:0.421638
G1 X59.568 Y65.82 E.01839
;WIDTH:0.427588
G1 X59.748 Y66.295 E.01545
;WIDTH:0.433547
G1 X59.853 Y66.785 E.01544
G1 X59.9 Y67.438 E.02022
;WIDTH:0.431539
G1 X59.873 Y67.873 E.01339
;WIDTH:0.423802
G1 X59.779 Y68.366 E.01508
;WIDTH:0.417148
G1 X59.679 Y68.647 E.00883
;WIDTH:0.397038
G1 X59.432 Y69.137 E.01535
;WIDTH:0.416908
G1 X59.36 Y69.185 E.00256
;WIDTH:0.466873
G1 X59.288 Y69.233 E.0029
;WIDTH:0.516837
G1 X59.216 Y69.281 E.00324
;WIDTH:0.566802
G1 X59.144 Y69.329 E.00359
;WIDTH:0.616766
G1 X59.072 Y69.377 E.00393
G1 X59.093 Y69.314 E.00303
;WIDTH:0.578992
G1 X59.115 Y69.251 E.00283
;WIDTH:0.541218
G1 X59.123 Y69.185 E.0026
;WIDTH:0.49765
G1 X59.13 Y69.12 E.00237
;WIDTH:0.454081
G1 X59.138 Y69.054 E.00214
;WIDTH:0.410512
G1 X59.146 Y68.989 E.00191
;WIDTH:0.396159
G1 X59.267 Y68.725 E.0081
;WIDTH:0.417148
G1 X59.412 Y68.294 E.01344
;WIDTH:0.422504
G1 X59.504 Y67.726 E.01725
;WIDTH:0.422614
G2 X59.409 Y66.506 I-4.101 J-.296 E.03684
G1 X59.224 Y65.975 E.01688
;WIDTH:0.421638
G1 X58.945 Y65.499 E.0165
;WIDTH:0.408869
G1 X58.568 Y65.087 E.01615
;WIDTH:0.404027
G1 X58.233 Y64.816 E.01229
;WIDTH:0.390394
G1 X57.778 Y64.543 E.01456
;WIDTH:0.372906
G1 X57.229 Y64.334 E.01532
;WIDTH:0.369441
G1 X56.83 Y64.226 E.01065
;WIDTH:0.36565
G1 X56.306 Y64.128 E.01359
;WIDTH:0.359411
G1 X55.795 Y64.081 E.01285
;WIDTH:0.360859
G1 X55.28 Y64.066 E.01293
G1 X51.99 Y64.066 E.08262
;WIDTH:0.40966
G1 X51.822 Y64.115 E.00507
;WIDTH:0.45846
M73 P11 R2
G1 X51.654 Y64.163 E.00574
;WIDTH:0.50726
G1 X51.486 Y64.212 E.00641
G1 X51.445 Y64.369 E.00594
;WIDTH:0.465972
G1 X51.404 Y64.526 E.00542
;WIDTH:0.424684
G1 X51.363 Y64.682 E.00489
;WIDTH:0.383396
G1 X51.363 Y70.413 E.15413
;WIDTH:0.430466
G1 X51.408 Y70.532 E.00389
;WIDTH:0.477536
G1 X51.454 Y70.651 E.00437
;WIDTH:0.524606
G1 X51.499 Y70.769 E.00484
;WIDTH:0.571676
G1 X51.544 Y70.888 E.00531
G1 X51.634 Y70.898 E.00375
;WIDTH:0.529513
G1 X51.723 Y70.908 E.00346
;WIDTH:0.48735
G1 X51.812 Y70.917 E.00316
;WIDTH:0.445187
G1 X51.902 Y70.927 E.00286
;WIDTH:0.403024
G1 X51.991 Y70.937 E.00256
;WIDTH:0.362915
G1 X54.841 Y70.934 E.07204
;WIDTH:0.390696
G1 X55.641 Y70.945 E.02198
;WIDTH:0.417596
G1 X55.892 Y70.938 E.00741
;WIDTH:0.444496
G1 X56.142 Y70.931 E.00795
;WIDTH:0.471022
G1 X56.592 Y70.864 E.01539
G1 X56.525 Y71.009 E.00539
G1 X56.523 Y71.418 E.01384
G1 X56.131 Y71.331 E.01358
;WIDTH:0.444496
G1 X55.804 Y71.303 E.0104
G1 E-1.2 F2400
;WIPE_START
G1 F9000
G1 X55.754 Y71.299
G1 X55.377 Y71.268
G1 X54.822 Y71.254
G1 X53.806 Y71.254
;WIPE_END
G1 X56.974 Y71.477 Z.4
G1 Z.2
G1 E1.2 F1800
;TYPE:Outer wall
;WIDTH:0.510477
G1 X57.117 Y71.61 E.00725
G1 X57.723 Y71.784 E.02328
;WIDTH:0.499999
G1 X58.169 Y71.99 E.01771
G1 X58.642 Y72.321 E.02085
G1 X59.018 Y72.71 E.01953
G1 X59.307 Y73.152 E.01907
G1 X59.513 Y73.655 E.01965
G1 X59.629 Y74.229 E.02115
G3 X59.284 Y76.384 I-4.381 J.403 E.07964
G1 X59.036 Y76.829 E.01839
G3 X57.874 Y77.881 I-3.117 J-2.278 E.05698
G3 X55.643 Y78.518 I-2.761 J-5.446 E.08429
G1 X54.727 Y78.561 E.03309
G1 X50.624 Y78.561 E.14817
G1 X50.624 Y63.361 E.54881
G1 X55.289 Y63.361 E.16844
M73 P12 R2
G3 X58.089 Y63.889 I.113 J7.093 E.10358
G1 X58.634 Y64.181 E.02233
G3 X60.275 Y66.754 I-1.919 J3.034 E.1138
G1 X60.321 Y67.468 E.02584
G1 X60.274 Y68.053 E.02119
G1 X60.119 Y68.642 E.022
G1 X59.918 Y69.108 E.01832
G1 X59.609 Y69.563 E.01986
G1 X59.216 Y69.956 E.02008
G1 X58.72 Y70.298 E.02173
G1 X58.165 Y70.547 E.02198
;WIDTH:0.548859
G3 X57.076 Y70.816 I-9.998 J-38.179 E.04481
;WIDTH:0.536099
G1 X56.968 Y71.024 E.00913
;WIDTH:0.500601
G1 X56.973 Y71.437 E.01493
G1 E-1.2 F2400
;WIPE_START
G1 F9000
G1 X57.117 Y71.61
G1 X57.723 Y71.784
G1 X58.169 Y71.99
G1 X58.642 Y72.321
G1 X58.695 Y72.375
;WIPE_END
G1 X55.013 Y71.373 Z.4
G1 X51.99 Y70.549 Z.4
G1 Z.2
G1 E1.2 F1800
;WIDTH:0.499999
G1 X51.849 Y70.501 E.0054
G1 X51.762 Y70.321 E.00721
G1 X51.762 Y64.682 E.20359
G1 X51.823 Y64.526 E.00605
G1 X51.99 Y64.454 E.00658
G1 X55.319 Y64.454 E.12019
G1 X56.27 Y64.513 E.03442
G1 X56.925 Y64.643 E.02408
G1 X57.556 Y64.873 E.02426
G1 X58.019 Y65.157 E.01963
G3 X58.592 Y65.71 I-2.01 J2.656 E.02882
G3 X59.088 Y67.176 I-2.593 J1.694 E.05646
G3 X58.783 Y68.845 I-3.641 J.197 E.06183
G1 X58.396 Y69.44 E.02561
G1 X57.922 Y69.863 E.02297
;WIDTH:0.531594
G1 X57.477 Y70.132 E.02007
;WIDTH:0.557525
G1 X57.342 Y70.217 E.00648
G1 X56.832 Y70.38 E.02175
;WIDTH:0.531966
G1 X56.315 Y70.466 E.02024
;WIDTH:0.499999
G3 X54.849 Y70.545 I-1.103 J-6.821 E.05313
G1 X52.03 Y70.549 E.10177
G1 E-1.2 F2400
;WIPE_START
M73 P13 R2
G1 F9000
G1 X51.849 Y70.501
G1 X51.762 Y70.321
G1 X51.762 Y68.708
;WIPE_END
G1 X55.562 Y69.056 Z.4
G1 X59.072 Y69.377 Z.4
G1 Z.2
G1 E1.2 F1800
;TYPE:Inner wall
;WIDTH:0.616766
G1 X58.931 Y69.522 E.00914
;WIDTH:0.567998
G1 X58.791 Y69.667 E.00837
;WIDTH:0.51923
G1 X58.651 Y69.813 E.00759
;WIDTH:0.470462
G1 X58.531 Y69.907 E.00515
G1 E-1.2 F2400
;WIPE_START
G1 F9000
G1 X58.651 Y69.813
G1 X58.791 Y69.667
G1 X58.931 Y69.522
G1 X59.072 Y69.377
;WIPE_END
G1 X55.437 Y70.54 Z.4
G1 X51.991 Y71.642 Z.4
G1 Z.2
G1 E1.2 F1800
;TYPE:Outer wall
;WIDTH:0.499999
G1 X54.822 Y71.642 E.10221
G3 X56.074 Y71.756 I.046 J6.447 E.04545
;WIDTH:0.500601
G1 X56.606 Y71.899 E.01993
;WIDTH:0.523532
G1 X57.133 Y72.121 E.02168
G1 X57.606 Y72.475 E.02246
;WIDTH:0.499999
G1 X57.97 Y72.896 E.02008
G1 X58.212 Y73.354 E.0187
G1 X58.355 Y73.843 E.01839
G1 X58.406 Y74.357 E.01866
G1 X58.369 Y75.178 E.02967
