;TIME:7616.40
;Filament used:14.15140m
;Layer height:0.200
; HEADER_BLOCK_START
; generated by Creality_Print V6.3.1.3548 on 2025-12-23 at 15:13:37
; total layer number: 24
; filament_density: 1.24,1.27
; filament_diameter: 1.75,1.75
; max_z_height: 4.80
; creality_uuid: 37cdc459-01a0-447b-b62c-8646ddd2b902
; HEADER_BLOCK_END

; MINX = 28.41
; MINY = 58.80
; MINZ = 0.00
; MAXX = 194.47
; MAXY = 181.60
; MAXZ = 4.83

; multicolor_method = 1 
; THUMBNAIL_BLOCK_START

;
; THUMBNAIL_BLOCK_END

; THUMBNAIL_BLOCK_START

;
; THUMBNAIL_BLOCK_END

; external perimeters extrusion width = 0.42mm
; perimeters extrusion width = 0.45mm
; infill extrusion width = 0.45mm
; solid infill extrusion width = 0.42mm
; top infill extrusion width = 0.42mm
; first layer extrusion width = 0.50mm

; EXECUTABLE_BLOCK_START
M73 P0 R126
M201 X5000 Y5000 Z500 E5000
M203 X500 Y500 Z30 E100
M204 P5000 R2500 T5000 ; sets acceleration (P, T) and retract acceleration (R), mm/sec^2
M205 X10.00 Y10.00 Z0.40 E5.00 ; sets the jerk limits, mm/sec
; max_print_temp = 57,225
;TYPE:Custom
M220 S100 ;Reset Feedrate 
M221 S100 ;Reset Flowrate 
 
M140 S57 ;Set final bed temp 
G28 ;Home 
 
G92 E0 ;Reset Extruder 
G1 Z2.0 F3000 ;Move Z Axis up 
M104 S225 ;Set final nozzle temp 
G1 X-2.1 Y20 Z0.28 F5000.0 ;Move to start position 
M190 S57 ;Wait for bed temp to stabilize 
M109 S225 ;Wait for nozzle temp to stabilize 
G1 X-2.1 Y145.0 Z0.28 F1500.0 E15 ;Draw the first line 
G1 X-2.4 Y145.0 Z0.28 F5000.0 ;Move to side a little 
G1 X-2.4 Y20 Z0.28 F1500.0 E30 ;Draw the second line 
G92 E0  ;Reset Extruder 
G1 E-1.0000 F1800 ;Retract a bit 
G1 Z2.0 F3000 ;Move Z Axis up 
G1 E0.0000 F1800
G90
G21
M83 ; use relative distances for extrusion
;filament start gcode
; MANUAL_TOOL_CHANGE T0
G1 E-1.2 F2400
G1 Z.2 F9000
M106 S0
;LAYER_CHANGE
;Z:0.2
;HEIGHT:0.2
;BEFORE_LAYER_CHANGE
;0.2
G92 E0

;_SET_FAN_SPEED_CHANGING_LAYER
M204 P500
M205 X10 Y10
; printing object Body_12 id:4600025253837932544 copy 0
M204 T500
G1 X192.515 Y180.069 Z.4 F9000
G1 Z.2
G1 E1.2 F1800
;TYPE:Inner wall
;WIDTH:0.499999
G1 X192.232 Y180.274 E.0126
G1 X191.725 Y180.527 E.02046
G1 X191.172 Y180.677 E.02072
G1 X190.528 Y180.745 E.02338
G1 X32.269 Y180.74 E5.71409
G1 X31.703 Y180.681 E.02054
G1 X31.153 Y180.518 E.02072
G1 X30.548 Y180.208 E.02453
G1 X30.135 Y179.889 E.01885
G1 X29.79 Y179.498 E.01884
G1 X29.529 Y179.062 E.01833
G1 X29.338 Y178.475 E.02231
G1 X29.272 Y177.935 E.01962
G1 X29.275 Y62.459 E4.1694
G3 X29.471 Y61.498 I2.871 J.086 E.03557
G1 X29.729 Y61.009 E.01995
G1 X30.052 Y60.595 E.01896
G3 X31.509 Y59.772 I2.448 J2.631 E.06097
G1 X32.084 Y59.671 E.02111
G1 X32.847 Y59.659 E.02753
G1 X190.244 Y59.664 E5.68298
G1 X191.079 Y59.71 E.03019
G1 X191.634 Y59.844 E.02063
G1 X192.145 Y60.079 E.02031
G1 X192.655 Y60.437 E.02247
G3 X193.612 Y62.396 I-1.854 J2.119 E.08086
G1 X193.61 Y177.386 E4.15179
G1 X193.589 Y178.194 E.0292
G1 X193.487 Y178.7 E.01862
G3 X192.644 Y179.975 I-2.727 J-.886 E.05587
G1 X192.547 Y180.045 E.00431
G1 X193.208 Y180.068 F9000
;TYPE:Outer wall
G1 F1800
G1 X193.16 Y180.129 E.00281
G1 X192.669 Y180.534 E.02297
G3 X191.24 Y181.129 I-2.271 J-3.442 E.05625
G1 X190.537 Y181.202 E.02551
G1 X32.805 Y181.197 E5.69507
G1 X32.044 Y181.183 E.02746
G3 X29.711 Y180.099 I.317 J-3.736 E.09481
G1 X29.326 Y179.613 E.02242
G1 X29.051 Y179.089 E.02133
G1 X28.888 Y178.552 E.02029
G1 X28.815 Y177.944 E.02209
G1 X28.818 Y62.324 E4.17457
G1 X28.904 Y61.731 E.02165
G1 X29.105 Y61.165 E.02168
G3 X30.095 Y59.948 I3.5 J1.837 E.05704
G3 X32.047 Y59.214 I2.233 J2.979 E.0763
G1 X190.244 Y59.207 E5.71186
G3 X192.803 Y59.966 I.212 J3.974 E.09826
G1 X193.174 Y60.304 E.01812
G1 X193.559 Y60.791 E.02241
G1 X193.834 Y61.315 E.02135
G3 X194.069 Y62.396 I-3.126 J1.245 E.04015
G1 X194.067 Y178.08 E4.17685
G1 X193.981 Y178.673 E.02165
G1 X193.78 Y179.239 E.02168
G3 X193.549 Y179.628 I-3.874 J-2.038 E.01636
G1 X193.232 Y180.036 E.01865
G1 E-1.2 F2400
;WIPE_START
G1 F9000
G1 X193.16 Y180.129
G1 X192.669 Y180.534
G1 X192.234 Y180.794
G1 X191.754 Y180.995
G1 X191.542 Y181.051
;WIPE_END
G1 X191.416 Y177.236 Z.4
G1 X187.641 Y63.578 Z.4
G1 Z.2
G1 E1.2 F1800
;TYPE:Inner wall
G1 X187.688 Y63.378 E.00744
G1 X187.978 Y62.908 E.01994
G1 X188.394 Y62.545 E.01994
G1 X188.899 Y62.321 E.01994
G1 X189.413 Y62.251 E.01873
G1 X189.813 Y62.303 E.01455
G1 X190.309 Y62.496 E.01923
G1 X190.723 Y62.814 E.01885
G1 X191.016 Y63.215 E.01794
G1 X191.204 Y63.729 E.01977
G1 X191.235 Y64.281 E.01995
G1 X191.102 Y64.817 E.01993
G1 X190.816 Y65.29 E.01994
G1 X190.404 Y65.657 E.01994
G1 X189.902 Y65.887 E.01994
G1 X189.355 Y65.959 E.01994
G1 X188.81 Y65.866 E.01994
G1 X188.318 Y65.616 E.01994
G1 X187.92 Y65.233 E.01994
G1 X187.654 Y64.749 E.01994
G1 X187.542 Y64.216 E.01969
G1 X187.544 Y63.995 E.00796
G1 X187.632 Y63.617 E.01401
G1 X187.999 Y64.051 F9000
;TYPE:Outer wall
G1 F1800
G1 X188.089 Y63.596 E.01672
G1 X188.297 Y63.235 E.01505
G1 X188.603 Y62.952 E.01505
G1 X188.978 Y62.771 E.01505
G1 X189.379 Y62.707 E.01465
G1 X189.667 Y62.736 E.01046
G1 X190.059 Y62.878 E.01505
G1 X190.4 Y63.142 E.01559
G1 X190.664 Y63.529 E.01689
G1 X190.778 Y63.932 E.01513
G1 X190.768 Y64.348 E.01505
G1 X190.635 Y64.744 E.01505
G1 X190.392 Y65.082 E.01505
G1 X190.06 Y65.334 E.01505
G1 X189.669 Y65.477 E.01505
G1 X189.252 Y65.498 E.01505
G1 X188.849 Y65.395 E.01505
G1 X188.493 Y65.178 E.01505
G1 X188.217 Y64.866 E.01505
G1 X188.045 Y64.486 E.01503
G1 X187.996 Y64.09 E.01442
G1 E-1.2 F2400
;WIPE_START
G1 F9000
G1 X188.089 Y63.596
G1 X188.297 Y63.235
G1 X188.603 Y62.952
G1 X188.978 Y62.771
G1 X189.223 Y62.732
;WIPE_END
G1 X189.4 Y66.544 Z.4
G1 X190.266 Y85.192 Z.4
G1 Z.2
G1 E1.2 F1800
;TYPE:Inner wall
G1 X190.255 Y85.205 E.00063
G3 X189.917 Y85.62 I-1.312 J-.723 E.01941
G1 X189.599 Y85.819 E.01355
G1 X189.077 Y85.926 E.01926
G1 X176.06 Y85.926 E.46999
G1 X175.538 Y85.819 E.01926
G1 X175.113 Y85.534 E.01847
G1 X174.813 Y85.086 E.01948
G1 X174.711 Y84.578 E.0187
G1 X174.712 Y71.534 E.47095
G1 X174.823 Y71.028 E.01872
G1 X175.134 Y70.585 E.01953
G1 X175.595 Y70.298 E.01964
G1 X176.06 Y70.212 E.01706
G1 X189.077 Y70.212 E.46999
G1 X189.561 Y70.304 E.01779
G1 X189.925 Y70.524 E.01534
G3 X190.361 Y71.176 I-.997 J1.14 E.02867
G1 X190.425 Y71.561 E.01409
G1 X190.425 Y84.578 E.46999
G1 X190.361 Y84.963 E.01409
G1 X190.282 Y85.155 E.00751
G1 X189.958 Y84.624 F9000
;TYPE:Outer wall
G1 F1800
G1 X189.88 Y84.954 E.01224
G1 X189.663 Y85.24 E.01295
G1 X189.371 Y85.414 E.0123
G1 X189.077 Y85.469 E.0108
G1 X176.06 Y85.469 E.46999
G1 X175.684 Y85.38 E.01395
G1 X175.403 Y85.172 E.01264
G1 X175.223 Y84.872 E.01262
G1 X175.168 Y84.483 E.0142
G1 X175.169 Y71.534 E.46751
G1 X175.257 Y71.185 E.01301
G1 X175.466 Y70.904 E.01264
G1 X175.766 Y70.724 E.01262
G1 X176.06 Y70.669 E.01081
G1 X189.077 Y70.669 E.46999
G1 X189.453 Y70.758 E.01394
G1 X189.734 Y70.967 E.01265
G1 X189.914 Y71.267 E.01262
G1 X189.968 Y71.561 E.0108
G1 X189.968 Y84.578 E.46999
G1 X189.967 Y84.585 E.00026
G1 E-1.2 F2400
;WIPE_START
G1 F9000
G1 X189.88 Y84.954
G1 X189.663 Y85.24
G1 X189.371 Y85.414
G1 X189.077 Y85.469
G1 X188.454 Y85.469
;WIPE_END
G1 X188.821 Y89.268 Z.4
G1 X190.267 Y104.24 Z.4
G1 Z.2
G1 E1.2 F1800
;TYPE:Inner wall
G1 X190.255 Y104.255 E.0007
M73 P0 R125
G3 X189.917 Y104.67 I-1.312 J-.723 E.01941
G1 X189.599 Y104.869 E.01355
G1 X189.077 Y104.976 E.01926
G1 X176.06 Y104.976 E.46999
G1 X175.538 Y104.869 E.01926
G1 X175.113 Y104.584 E.01847
G1 X174.813 Y104.136 E.01948
G1 X174.711 Y103.628 E.0187
G1 X174.712 Y90.584 E.47095
G1 X174.823 Y90.078 E.01871
G1 X175.113 Y89.655 E.01852
G1 X175.538 Y89.37 E.01847
G1 X176.06 Y89.262 E.01926
G1 X189.077 Y89.262 E.46999
G1 X189.599 Y89.37 E.01926
G1 X189.925 Y89.574 E.01387
G3 X190.361 Y90.226 I-.997 J1.14 E.02867
G1 X190.425 Y90.611 E.01409
G1 X190.425 Y103.628 E.46999
G1 X190.361 Y104.013 E.01409
G1 X190.282 Y104.203 E.00743
G1 X189.956 Y103.681 F9000
;TYPE:Outer wall
G1 F1800
G1 X189.88 Y104.004 E.01196
G1 X189.663 Y104.29 E.01295
G1 X189.371 Y104.464 E.0123
G1 X189.077 Y104.519 E.0108
G1 X176.06 Y104.519 E.46999
G1 X175.684 Y104.43 E.01395
G1 X175.403 Y104.222 E.01264
G1 X175.223 Y103.922 E.01262
G1 X175.168 Y103.533 E.0142
G1 X175.169 Y90.584 E.46751
G1 X175.257 Y90.235 E.01301
G1 X175.466 Y89.954 E.01265
G1 X175.766 Y89.774 E.01262
G1 X176.06 Y89.719 E.01081
G1 X189.077 Y89.719 E.46999
G1 X189.453 Y89.808 E.01394
G1 X189.734 Y90.017 E.01265
G1 X189.913 Y90.317 E.01262
G1 X189.968 Y90.611 E.01081
G1 X189.968 Y103.628 E.46999
G1 X189.965 Y103.642 E.00054
G1 E-1.2 F2400
;WIPE_START
G1 F9000
G1 X189.88 Y104.004
G1 X189.663 Y104.29
G1 X189.371 Y104.464
G1 X189.077 Y104.519
G1 X188.447 Y104.519
;WIPE_END
G1 X185.862 Y107.327 Z.4
G1 X170.875 Y123.605 Z.4
G1 Z.2
G1 E1.2 F1800
;TYPE:Inner wall
G1 X170.549 Y123.824 E.01417
G1 X170.027 Y123.931 E.01926
G1 X157.01 Y123.931 E.46999
G1 X156.488 Y123.824 E.01926
G1 X156.149 Y123.611 E.01444
G1 X155.827 Y123.212 E.0185
G1 X155.725 Y122.967 E.00958
G1 X155.661 Y122.582 E.01409
G1 X155.662 Y109.537 E.47103
G1 X155.746 Y109.119 E.01539
G1 X155.985 Y108.701 E.01739
G1 X156.379 Y108.384 E.01825
G1 X156.625 Y108.281 E.00965
G1 X157.01 Y108.217 E.01408
G1 X170.027 Y108.217 E.46999
G1 X170.549 Y108.324 E.01926
G1 X171.027 Y108.668 E.02126
G1 X171.274 Y109.058 E.01666
G1 X171.375 Y109.566 E.0187
G1 X171.375 Y122.583 E.46999
G1 X171.264 Y123.115 E.01966
G1 X170.974 Y123.539 E.01852
G1 X170.908 Y123.583 E.00286
G1 X170.818 Y122.974 F9000
;TYPE:Outer wall
G1 F1800
G1 X170.621 Y123.239 E.01194
G1 X170.321 Y123.419 E.01262
G1 X170.027 Y123.474 E.0108
G1 X157.01 Y123.474 E.46999
G1 X156.634 Y123.385 E.01394
G1 X156.353 Y123.176 E.01265
G1 X156.173 Y122.877 E.01262
G1 X156.118 Y122.582 E.01081
G1 X156.119 Y109.537 E.47103
G1 X156.224 Y109.155 E.01432
G1 X156.418 Y108.907 E.01135
G1 X156.716 Y108.729 E.01253
G1 X157.01 Y108.674 E.0108
G1 X170.027 Y108.674 E.46999
G1 X170.403 Y108.763 E.01394
G1 X170.684 Y108.972 E.01264
G1 X170.864 Y109.272 E.01262
G1 X170.918 Y109.634 E.01324
G1 X170.918 Y122.583 E.46751
G1 X170.834 Y122.939 E.01321
G1 E-1.2 F2400
;WIPE_START
G1 F9000
G1 X170.621 Y123.239
G1 X170.321 Y123.419
G1 X170.027 Y123.474
G1 X169.045 Y123.474
;WIPE_END
G1 X169.413 Y119.676 Z.4
G1 X170.879 Y104.553 Z.4
G1 Z.2
G1 E1.2 F1800
;TYPE:Inner wall
G1 X170.549 Y104.774 E.01434
G1 X170.027 Y104.881 E.01926
G1 X157.01 Y104.881 E.46999
G1 X156.488 Y104.774 E.01925
G1 X156.149 Y104.561 E.01445
G1 X155.827 Y104.162 E.0185
G1 X155.772 Y104.063 E.0041
G1 X155.661 Y103.532 E.01956
G1 X155.662 Y90.487 E.47103
G1 X155.746 Y90.069 E.01539
G1 X155.859 Y89.829 E.00957
G1 X156.178 Y89.462 E.01758
G1 X156.495 Y89.271 E.01336
G1 X157.01 Y89.167 E.01896
G1 X170.027 Y89.167 E.46999
G1 X170.549 Y89.274 E.01926
G1 X170.974 Y89.559 E.01847
G1 X171.274 Y90.008 E.01948
G1 X171.375 Y90.516 E.0187
G1 X171.375 Y103.533 E.46999
G1 X171.264 Y104.065 E.01966
G1 X170.974 Y104.489 E.01852
G1 X170.912 Y104.53 E.00269
G1 X170.833 Y103.893 F9000
;TYPE:Outer wall
G1 F1800
G1 X170.83 Y103.908 E.00055
G1 X170.621 Y104.189 E.01265
G1 X170.321 Y104.369 E.01262
G1 X170.027 Y104.424 E.0108
G1 X157.01 Y104.424 E.46999
G1 X156.634 Y104.335 E.01394
G1 X156.353 Y104.126 E.01264
G1 X156.189 Y103.875 E.01083
G1 X156.118 Y103.532 E.01263
G1 X156.119 Y90.487 E.47103
G1 X156.227 Y90.101 E.01447
G1 X156.441 Y89.836 E.0123
G1 X156.716 Y89.679 E.01143
G1 X157.01 Y89.624 E.0108
G1 X170.027 Y89.624 E.46999
G1 X170.403 Y89.713 E.01394
G1 X170.684 Y89.922 E.01265
G1 X170.864 Y90.222 E.01262
G1 X170.918 Y90.584 E.01324
G1 X170.918 Y103.533 E.46751
G1 X170.842 Y103.855 E.01195
G1 E-1.2 F2400
;WIPE_START
G1 F9000
G1 X170.83 Y103.908
G1 X170.621 Y104.189
G1 X170.321 Y104.369
G1 X170.027 Y104.424
G1 X169.081 Y104.424
;WIPE_END
G1 X166.153 Y106.871 Z.4
G1 X151.781 Y118.884 Z.4
G1 Z.2
G1 E1.2 F1800
;TYPE:Inner wall
G1 X151.499 Y119.061 E.012
G1 X150.977 Y119.169 E.01926
G1 X137.96 Y119.169 E.46999
G1 X137.438 Y119.061 E.01926
G1 X136.984 Y118.746 E.01995
G1 X136.7 Y118.295 E.01924
G1 X136.611 Y117.82 E.01746
G1 X136.612 Y104.774 E.47102
G1 X136.696 Y104.356 E.01539
G1 X136.81 Y104.116 E.00962
G1 X137.111 Y103.761 E.01682
G1 X137.481 Y103.545 E.01547
G1 X137.96 Y103.454 E.01759
G1 X150.977 Y103.454 E.46999
G1 X151.499 Y103.562 E.01926
G1 X151.838 Y103.775 E.01444
G1 X152.16 Y104.173 E.0185
G1 X152.262 Y104.418 E.00958
G1 X152.325 Y104.803 E.01408
G1 X152.325 Y117.82 E.46999
G1 X152.262 Y118.205 E.01408
G1 X152.16 Y118.45 E.00958
G1 X151.838 Y118.848 E.0185
G1 X151.814 Y118.863 E.00099
G1 X151.758 Y118.224 F9000
;TYPE:Outer wall
G1 F1800
G1 X151.571 Y118.477 E.01136
G1 X151.271 Y118.657 E.01262
G1 X150.977 Y118.712 E.0108
G1 X137.96 Y118.712 E.46999
G1 X137.584 Y118.623 E.01394
G1 X137.303 Y118.414 E.01265
G1 X137.123 Y118.114 E.01262
G1 X137.068 Y117.82 E.01081
G1 X137.069 Y104.774 E.47102
G1 X137.177 Y104.388 E.01449
G1 X137.399 Y104.118 E.01264
G1 X137.654 Y103.968 E.01066
G1 X137.96 Y103.912 E.01124
G1 X150.977 Y103.912 E.46999
G1 X151.353 Y104 E.01394
G1 X151.634 Y104.209 E.01265
G1 X151.814 Y104.509 E.01262
G1 X151.868 Y104.803 E.0108
G1 X151.868 Y117.82 E.46999
G1 X151.781 Y118.191 E.01378
G1 E-1.2 F2400
;WIPE_START
G1 F9000
G1 X151.571 Y118.477
G1 X151.271 Y118.657
G1 X150.977 Y118.712
G1 X149.98 Y118.712
;WIPE_END
G1 X150.205 Y114.902 Z.4
G1 X151.976 Y84.896 Z.4
G1 Z.2
G1 E1.2 F1800
;TYPE:Inner wall
G1 X152.16 Y85.123 E.01057
G1 X152.262 Y85.368 E.00958
G1 X152.325 Y85.753 E.01409
G1 X152.325 Y98.77 E.46999
G1 X152.262 Y99.155 E.01408
G1 X152.16 Y99.4 E.00958
G1 X151.838 Y99.798 E.0185
G1 X151.499 Y100.011 E.01444
G1 X150.977 Y100.119 E.01926
G1 X137.96 Y100.119 E.46999
G1 X137.46 Y100.021 E.01839
G1 X137.051 Y99.761 E.01748
G1 X136.739 Y99.336 E.01903
G1 X136.611 Y98.827 E.01896
G1 X136.612 Y85.726 E.473
G1 X136.678 Y85.355 E.01364
M73 P1 R125
G1 X136.923 Y84.905 E.01847
G1 X137.112 Y84.716 E.00966
G1 X137.438 Y84.512 E.01387
G1 X137.96 Y84.404 E.01926
G1 X150.977 Y84.404 E.46999
G1 X151.499 Y84.512 E.01926
G1 X151.838 Y84.725 E.01444
G1 X151.95 Y84.865 E.00649
G1 X151.337 Y84.947 F9000
;TYPE:Outer wall
G1 F1800
G1 X151.353 Y84.95 E.00057
G1 X151.634 Y85.159 E.01264
G1 X151.814 Y85.459 E.01262
G1 X151.868 Y85.753 E.01081
G1 X151.868 Y98.77 E.46999
G1 X151.78 Y99.146 E.01394
G1 X151.571 Y99.427 E.01265
G1 X151.271 Y99.607 E.01262
G1 X150.977 Y99.662 E.0108
G1 X137.96 Y99.662 E.46999
G1 X137.584 Y99.573 E.01394
G1 X137.303 Y99.364 E.01265
G1 X137.123 Y99.064 E.01262
G1 X137.068 Y98.77 E.01081
G1 X137.069 Y85.727 E.47095
G1 X137.157 Y85.377 E.013
G1 X137.366 Y85.096 E.01264
G1 X137.666 Y84.916 E.01262
G1 X137.96 Y84.862 E.0108
G1 X150.977 Y84.862 E.46999
G1 X151.298 Y84.938 E.01193
G1 E-1.2 F2400
;WIPE_START
G1 F9000
G1 X151.353 Y84.95
G1 X151.634 Y85.159
G1 X151.814 Y85.459
G1 X151.868 Y85.753
G1 X151.868 Y86.698
;WIPE_END
G1 X151.665 Y82.888 Z.4
G1 X151.56 Y80.923 Z.4
G1 Z.2
G1 E1.2 F1800
;TYPE:Inner wall
G1 X151.499 Y80.961 E.00257
G1 X150.977 Y81.069 E.01926
G1 X137.96 Y81.069 E.46999
G1 X137.438 Y80.961 E.01926
G1 X136.984 Y80.646 E.01995
G1 X136.7 Y80.195 E.01924
G1 X136.611 Y79.72 E.01745
G1 X136.612 Y66.676 E.47095
G1 X136.678 Y66.305 E.01364
G1 X136.923 Y65.855 E.01847
G3 X137.406 Y65.476 I1.12 J.931 E.02234
G1 X137.882 Y65.354 E.01772
G1 X150.977 Y65.354 E.47281
G1 X151.492 Y65.458 E.01896
G1 X151.932 Y65.755 E.01919
G1 X152.216 Y66.175 E.01827
G1 X152.325 Y66.697 E.01927
G1 X152.325 Y79.72 E.47021
G1 X152.262 Y80.105 E.01408
G1 X152.16 Y80.35 E.00958
G1 X151.838 Y80.748 E.0185
G1 X151.593 Y80.902 E.01042
G1 X151.603 Y80.334 F9000
;TYPE:Outer wall
G1 F1800
G1 X151.571 Y80.377 E.00195
G1 X151.271 Y80.557 E.01262
G1 X150.977 Y80.612 E.0108
G1 X137.96 Y80.612 E.46999
G1 X137.584 Y80.523 E.01394
G1 X137.303 Y80.314 E.01264
G1 X137.123 Y80.014 E.01262
G1 X137.068 Y79.72 E.01081
G1 X137.069 Y66.677 E.47095
G1 X137.157 Y66.327 E.013
G1 X137.366 Y66.046 E.01265
G1 X137.666 Y65.866 E.01262
G1 X137.96 Y65.812 E.01081
G1 X150.977 Y65.812 E.46999
G1 X151.353 Y65.9 E.01394
G1 X151.634 Y66.109 E.01265
G1 X151.814 Y66.409 E.01262
G1 X151.868 Y66.703 E.01081
G1 X151.868 Y79.72 E.46999
