;TIME:9267.70
;Filament used:22.04858m
;Layer height:0.200
; HEADER_BLOCK_START
; generated by Creality_Print V6.3.1.3548 on 2025-12-30 at 16:18:06
; total layer number: 84
; filament_density: 1.27
; filament_diameter: 1.75
; max_z_height: 15.00
; creality_uuid: f2d003fa-648f-43bd-9837-a9cbd337fea6
; HEADER_BLOCK_END

; MINX = 63.60
; MINY = 25.25
; MINZ = 0.00
; MAXX = 189.60
; MAXY = 194.75
; MAXZ = 15.00

; multicolor_method = 0 
; THUMBNAIL_BLOCK_START

;
; THUMBNAIL_BLOCK_END

; THUMBNAIL_BLOCK_START

;
; THUMBNAIL_BLOCK_END

; external perimeters extrusion width = 0.42mm
; perimeters extrusion width = 0.45mm
; infill extrusion width = 0.45mm
; solid infill extrusion width = 0.42mm
; top infill extrusion width = 0.42mm
; support material extrusion width = 0.40mm
; first layer extrusion width = 0.50mm

; EXECUTABLE_BLOCK_START
M73 P0 R154
M201 X5000 Y5000 Z500 E5000
M203 X500 Y500 Z30 E100
M204 P5000 R2500 T5000 ; sets acceleration (P, T) and retract acceleration (R), mm/sec^2
M205 X10.00 Y10.00 Z0.40 E5.00 ; sets the jerk limits, mm/sec
; max_print_temp = 74,241
;TYPE:Custom
M220 S100 ;Reset Feedrate 
M221 S100 ;Reset Flowrate 
 
M140 S74 ;Set final bed temp 
G28 ;Home 
 
G92 E0 ;Reset Extruder 
G1 Z2.0 F3000 ;Move Z Axis up 
M104 S239 ;Set final nozzle temp 
G1 X-2.1 Y20 Z0.28 F5000.0 ;Move to start position 
M190 S74 ;Wait for bed temp to stabilize 
M109 S239 ;Wait for nozzle temp to stabilize 
G1 X-2.1 Y145.0 Z0.28 F1500.0 E15 ;Draw the first line 
G1 X-2.4 Y145.0 Z0.28 F5000.0 ;Move to side a little 
G1 X-2.4 Y20 Z0.28 F1500.0 E30 ;Draw the second line 
G92 E0  ;Reset Extruder 
G1 E-1.0000 F1800 ;Retract a bit 
G1 Z2.0 F3000 ;Move Z Axis up 
G1 E0.0000 F1800
G90
G21
M83 ; use relative distances for extrusion
;filament start gcode
G1 E-1.2 F1800
G1 Z.2 F9000
M106 S0
;LAYER_CHANGE
;Z:0.2
;HEIGHT:0.2
;BEFORE_LAYER_CHANGE
;0.2
G92 E0

;_SET_FAN_SPEED_CHANGING_LAYER
M204 P500
M205 X10 Y10
; printing object Body_11 id:0 copy 0
M204 T500
G1 X108.533 Y197.641 Z.4 F9000
G1 Z.2
G1 E1.2 F1800
;TYPE:Support
;WIDTH:0.5
G1 X81.82 Y197.641 E.96452
G1 X81.82 Y195.2 E.08813
G1 X108.533 Y195.2 E.96452
G1 X108.533 Y197.572 E.08565
G1 X107.814 Y197.435 F9000
G1 F1800
G1 X107.814 Y195.611 E.06585
G1 X107.306 Y195.611 E.01834
G1 X107.306 Y197.229 E.05842
G1 X106.798 Y197.229 E.01834
G1 X106.798 Y195.611 E.05842
G1 X106.29 Y195.611 E.01834
G1 X106.29 Y197.229 E.05842
G1 X105.782 Y197.229 E.01834
G1 X105.782 Y195.611 E.05842
G1 X105.274 Y195.611 E.01834
G1 X105.274 Y197.229 E.05842
G1 X104.766 Y197.229 E.01834
G1 X104.766 Y195.611 E.05842
G1 X104.258 Y195.611 E.01834
G1 X104.258 Y197.229 E.05842
G1 X103.751 Y197.229 E.01834
G1 X103.751 Y195.611 E.05842
G1 X103.243 Y195.611 E.01834
G1 X103.243 Y197.229 E.05842
G1 X102.735 Y197.229 E.01834
G1 X102.735 Y195.611 E.05842
G1 X102.227 Y195.611 E.01834
G1 X102.227 Y197.229 E.05842
G1 X101.719 Y197.229 E.01834
G1 X101.719 Y195.611 E.05842
G1 X101.211 Y195.611 E.01834
G1 X101.211 Y197.229 E.05842
G1 X100.703 Y197.229 E.01834
G1 X100.703 Y195.611 E.05842
G1 X100.196 Y195.611 E.01834
G1 X100.196 Y197.229 E.05842
G1 X99.688 Y197.229 E.01834
G1 X99.688 Y195.611 E.05842
G1 X99.18 Y195.611 E.01834
G1 X99.18 Y197.229 E.05842
G1 X98.672 Y197.229 E.01834
G1 X98.672 Y195.611 E.05842
G1 X98.164 Y195.611 E.01834
G1 X98.164 Y197.229 E.05842
G1 X97.656 Y197.229 E.01834
G1 X97.656 Y195.611 E.05842
G1 X97.148 Y195.611 E.01834
G1 X97.148 Y197.229 E.05842
G1 X96.64 Y197.229 E.01834
G1 X96.64 Y195.611 E.05842
G1 X96.133 Y195.611 E.01834
G1 X96.133 Y197.229 E.05842
G1 X95.625 Y197.229 E.01834
G1 X95.625 Y195.611 E.05842
G1 X95.117 Y195.611 E.01834
G1 X95.117 Y197.229 E.05842
G1 X94.609 Y197.229 E.01834
G1 X94.609 Y195.611 E.05842
G1 X94.101 Y195.611 E.01834
G1 X94.101 Y197.229 E.05842
G1 X93.593 Y197.229 E.01834
G1 X93.593 Y195.611 E.05842
G1 X93.085 Y195.611 E.01834
G1 X93.085 Y197.229 E.05842
G1 X92.578 Y197.229 E.01834
G1 X92.578 Y195.611 E.05842
G1 X92.07 Y195.611 E.01834
G1 X92.07 Y197.229 E.05842
G1 X91.562 Y197.229 E.01834
G1 X91.562 Y195.611 E.05842
G1 X91.054 Y195.611 E.01834
G1 X91.054 Y197.229 E.05842
;TIME_ELAPSED:67.666977
G1 X90.546 Y197.229 E.01834
G1 X90.546 Y195.611 E.05842
G1 X90.038 Y195.611 E.01834
G1 X90.038 Y197.229 E.05842
G1 X89.53 Y197.229 E.01834
G1 X89.53 Y195.611 E.05842
G1 X89.023 Y195.611 E.01834
G1 X89.023 Y197.229 E.05842
G1 X88.515 Y197.229 E.01834
G1 X88.515 Y195.611 E.05842
G1 X88.007 Y195.611 E.01834
G1 X88.007 Y197.229 E.05842
G1 X87.499 Y197.229 E.01834
G1 X87.499 Y195.611 E.05842
G1 X86.991 Y195.611 E.01834
G1 X86.991 Y197.229 E.05842
G1 X86.483 Y197.229 E.01834
G1 X86.483 Y195.611 E.05842
G1 X85.975 Y195.611 E.01834
G1 X85.975 Y197.229 E.05842
G1 X85.467 Y197.229 E.01834
G1 X85.467 Y195.611 E.05842
G1 X84.96 Y195.611 E.01834
G1 X84.96 Y197.229 E.05842
G1 X84.452 Y197.229 E.01834
G1 X84.452 Y195.611 E.05842
G1 X83.944 Y195.611 E.01834
G1 X83.944 Y197.229 E.05842
G1 X83.436 Y197.229 E.01834
G1 X83.436 Y195.611 E.05842
G1 X82.928 Y195.611 E.01834
G1 X82.928 Y197.229 E.05842
G1 X82.42 Y197.229 E.01834
G1 X82.42 Y195.406 E.06585
G1 E-1.2
;WIPE_START
G1 F9000
G1 X82.42 Y197.229
G1 X82.596 Y197.229
;WIPE_END
G1 X86.411 Y197.103 Z.4
G1 X184.843 Y193.843 Z.4
G1 Z.2
G1 E1.2 F1800
;TYPE:Inner wall
;WIDTH:0.499999
G1 X184.336 Y193.893 E.01838
G1 X69.011 Y193.891 E4.1639
G3 X66.323 Y192.999 I-.037 J-4.387 E.10415
G3 X65.118 Y191.617 I3.243 J-4.044 E.06657
G3 X64.462 Y189.091 I4.663 J-2.559 E.09518
G1 X64.464 Y30.682 E5.71953
G3 X65.618 Y27.662 I5.294 J.292 E.1186
M73 P0 R153
G3 X68.873 Y26.107 I3.365 J2.86 E.13418
G1 X184.197 Y26.109 E4.16389
G3 X186.885 Y27 I.038 J4.387 E.1041
G1 X187.414 Y27.479 E.02577
G1 X187.849 Y27.998 E.02444
G3 X188.747 Y30.959 I-4.484 J2.977 E.11334
G1 X188.745 Y189.319 E5.71771
G3 X187.979 Y191.796 I-5.359 J-.301 E.09456
G1 X187.591 Y192.338 E.02405
G3 X184.997 Y193.827 I-3.365 J-2.86 E.11017
G1 X184.882 Y193.839 E.00416
G1 X185.446 Y194.215 F9000
;TYPE:Outer wall
G1 F1800
G3 X184.347 Y194.35 I-1.467 J-7.379 E.04002
G1 X68.732 Y194.348 E4.17441
G3 X65.776 Y193.155 I.223 J-4.81 E.1173
G1 X65.28 Y192.648 E.0256
G3 X64.005 Y189.096 I4.426 J-3.595 E.13888
G1 X64.007 Y30.614 E5.72214
G3 X65.127 Y27.552 I5.829 J.396 E.11929
G3 X67.763 Y25.785 I3.905 J2.977 E.11667
G3 X68.862 Y25.65 I1.467 J7.379 E.04002
G1 X184.478 Y25.652 E4.17442
G3 X187.432 Y26.844 I-.223 J4.811 E.11723
G1 X187.929 Y27.352 E.02566
G3 X189.205 Y30.959 I-4.424 J3.594 E.14088
G1 X189.202 Y189.386 E5.72015
G3 X188.082 Y192.448 I-5.831 J-.397 E.11929
G3 X185.485 Y194.204 I-3.905 J-2.977 E.11522
G1 E-1.2
;WIPE_START
G1 F9000
G1 X185.075 Y194.279
G1 X184.347 Y194.35
G1 X183.495 Y194.35
;WIPE_END
G1 X188.039 Y28.583 Z.4
;TIME_ELAPSED:124.573166
G1 Z.4
G1 Z.2
G1 E1.2 F1800
;TYPE:Bottom surface
;WIDTH:0.50102
G1 F4800
G1 X186.897 Y27.441 E.05841
G2 X185.421 Y26.613 I-2.602 J2.907 E.06176
G1 X188.144 Y29.335 E.13934
G3 X188.349 Y30.189 I-6.158 J1.936 E.0318
G1 X184.631 Y26.471 E.19029
G2 X183.964 Y26.452 I-.429 J3.405 E.02417
G1 X188.403 Y30.891 E.22716
G3 X188.405 Y31.54 I-4.719 J.337 E.02352
G1 X183.316 Y26.452 E.2604
G1 X182.669 Y26.452 E.02344
G1 X188.405 Y32.188 E.29355
G1 X188.405 Y32.836 E.02344
G1 X182.021 Y26.452 E.32671
G1 X181.373 Y26.452 E.02344
G1 X188.405 Y33.484 E.35986
G1 X188.405 Y34.132 E.02344
G1 X180.725 Y26.452 E.39301
G1 X180.077 Y26.452 E.02344
G1 X188.405 Y34.779 E.42617
G1 X188.405 Y35.427 E.02344
G1 X179.429 Y26.452 E.45932
G1 X178.781 Y26.452 E.02344
G1 X188.405 Y36.075 E.49248
G1 X188.405 Y36.723 E.02344
G1 X178.133 Y26.452 E.52563
G1 X177.486 Y26.452 E.02344
G1 X188.405 Y37.371 E.55878
G1 X188.405 Y38.019 E.02344
G1 X176.838 Y26.452 E.59194
G1 X176.19 Y26.452 E.02344
G1 X188.405 Y38.666 E.62509
G1 X188.405 Y39.314 E.02344
G1 X175.542 Y26.452 E.65825
G1 X174.894 Y26.452 E.02344
G1 X188.405 Y39.962 E.6914
G1 X188.405 Y40.61 E.02344
G1 X174.246 Y26.452 E.72456
G1 X173.598 Y26.452 E.02344
G1 X188.405 Y41.258 E.75771
G1 X188.405 Y41.906 E.02344
G1 X172.951 Y26.452 E.79086
G1 X172.303 Y26.452 E.02344
G1 X188.405 Y42.553 E.82402
G1 X188.404 Y43.201 E.02344
G1 X171.655 Y26.452 E.85717
G1 X171.007 Y26.452 E.02344
G1 X188.404 Y43.849 E.89033
G1 X188.404 Y44.497 E.02344
G1 X170.359 Y26.452 E.92348
G1 X169.711 Y26.452 E.02344
G1 X188.404 Y45.145 E.95663
G1 X188.404 Y45.793 E.02344
G1 X169.063 Y26.452 E.98979
G1 X168.416 Y26.452 E.02344
G1 X188.404 Y46.44 E1.02294
G1 X188.404 Y47.088 E.02344
G1 X167.768 Y26.452 E1.0561
G1 X167.12 Y26.452 E.02344
G1 X188.404 Y47.736 E1.08925
G1 X188.404 Y48.384 E.02344
G1 X166.472 Y26.452 E1.12241
G1 X165.824 Y26.452 E.02344
G1 X188.404 Y49.032 E1.15556
G1 X188.404 Y49.68 E.02344
G1 X165.176 Y26.452 E1.18871
G1 X164.528 Y26.452 E.02344
G1 X188.404 Y50.328 E1.22187
G1 X188.404 Y50.975 E.02344
G1 X163.881 Y26.452 E1.25502
G1 X163.233 Y26.451 E.02344
G1 X188.404 Y51.623 E1.28818
G1 X188.404 Y52.271 E.02344
G1 X162.585 Y26.451 E1.32133
G1 X161.937 Y26.451 E.02344
G1 X188.404 Y52.919 E1.35448
G1 X188.404 Y53.567 E.02344
G1 X161.289 Y26.451 E1.38764
G1 X160.641 Y26.451 E.02344
G1 X188.404 Y54.215 E1.42079
G1 X188.404 Y54.862 E.02344
G1 X159.993 Y26.451 E1.45395
G1 X159.345 Y26.451 E.02344
G1 X188.404 Y55.51 E1.4871
G1 X188.404 Y56.158 E.02344
G1 X158.698 Y26.451 E1.52026
;TIME_ELAPSED:181.479355
G1 X158.05 Y26.451 E.02344
G1 X188.404 Y56.806 E1.55341
G1 X188.404 Y57.454 E.02344
G1 X157.402 Y26.451 E1.58656
G1 X156.754 Y26.451 E.02344
G1 X188.404 Y58.102 E1.61972
G1 X188.404 Y58.749 E.02344
G1 X156.106 Y26.451 E1.65287
G1 X155.458 Y26.451 E.02344
G1 X188.404 Y59.397 E1.68603
G1 X188.404 Y60.045 E.02344
G1 X154.81 Y26.451 E1.71918
G1 X154.163 Y26.451 E.02344
G1 X188.404 Y60.693 E1.75233
G1 X188.404 Y61.341 E.02344
G1 X153.515 Y26.451 E1.78549
G1 X152.867 Y26.451 E.02344
G1 X188.404 Y61.989 E1.81864
G1 X188.404 Y62.636 E.02344
G1 X152.219 Y26.451 E1.8518
G1 X151.571 Y26.451 E.02344
G1 X188.404 Y63.284 E1.88495
G1 X188.404 Y63.932 E.02344
G1 X150.923 Y26.451 E1.91811
G1 X150.275 Y26.451 E.02344
M73 P0 R152
G1 X188.404 Y64.58 E1.95126
G1 X188.404 Y65.228 E.02344
G1 X149.628 Y26.451 E1.98441
G1 X148.98 Y26.451 E.02344
G1 X188.404 Y65.876 E2.01757
G1 X188.404 Y66.524 E.02344
G1 X148.332 Y26.451 E2.05072
G1 X147.684 Y26.451 E.02344
G1 X188.404 Y67.171 E2.08388
G1 X188.404 Y67.819 E.02344
M73 P1 R152
G1 X147.036 Y26.451 E2.11703
G1 X146.388 Y26.451 E.02344
G1 X188.404 Y68.467 E2.15019
G1 X188.404 Y69.115 E.02344
G1 X145.74 Y26.451 E2.18334
G1 X145.093 Y26.451 E.02344
G1 X188.404 Y69.763 E2.21649
G1 X188.404 Y70.411 E.02344
G1 X144.445 Y26.451 E2.24965
G1 X143.797 Y26.451 E.02344
G1 X188.404 Y71.058 E2.2828
G1 X188.404 Y71.706 E.02344
G1 X143.149 Y26.451 E2.31596
G1 X142.501 Y26.451 E.02344
G1 X188.404 Y72.354 E2.34911
G1 X188.404 Y73.002 E.02344
G1 X141.853 Y26.451 E2.38226
G1 X141.205 Y26.451 E.02344
G1 X188.404 Y73.65 E2.41542
G1 X188.404 Y74.298 E.02344
G1 X140.557 Y26.451 E2.44857
G1 X139.91 Y26.451 E.02344
G1 X188.404 Y74.945 E2.48173
G1 X188.404 Y75.593 E.02344
G1 X139.262 Y26.451 E2.51488
G1 X138.614 Y26.451 E.02344
G1 X188.404 Y76.241 E2.54804
G1 X188.404 Y76.889 E.02344
G1 X137.966 Y26.451 E2.58119
G1 X137.318 Y26.451 E.02344
G1 X188.404 Y77.537 E2.61434
G1 X188.404 Y78.185 E.02344
G1 X136.67 Y26.451 E2.6475
G1 X136.022 Y26.451 E.02344
G1 X188.404 Y78.832 E2.68065
G1 X188.404 Y79.48 E.02344
G1 X135.375 Y26.451 E2.71381
G1 X134.727 Y26.451 E.02344
G1 X188.404 Y80.128 E2.74696
G1 X188.404 Y80.776 E.02344
G1 X134.079 Y26.451 E2.78011
G1 X133.431 Y26.451 E.02344
G1 X188.404 Y81.424 E2.81327
G1 X188.404 Y82.072 E.02344
G1 X132.783 Y26.451 E2.84642
G1 X132.135 Y26.451 E.02344
G1 X188.404 Y82.72 E2.87958
G1 X188.404 Y83.367 E.02344
G1 X131.487 Y26.451 E2.91273
G1 X130.84 Y26.451 E.02344
G1 X188.404 Y84.015 E2.94589
G1 X188.404 Y84.663 E.02344
G1 X130.192 Y26.451 E2.97904
G1 X129.544 Y26.451 E.02344
G1 X188.404 Y85.311 E3.01219
G1 X188.404 Y85.959 E.02344
;TIME_ELAPSED:238.385544
G1 X128.896 Y26.451 E3.04535
G1 X128.248 Y26.451 E.02344
G1 X188.404 Y86.607 E3.0785
G1 X188.404 Y87.254 E.02344
G1 X127.6 Y26.451 E3.11166
G1 X126.952 Y26.451 E.02344
G1 X188.404 Y87.902 E3.14481
G1 X188.404 Y88.55 E.02344
G1 X126.305 Y26.451 E3.17796
G1 X125.657 Y26.451 E.02344
G1 X188.404 Y89.198 E3.21112
G1 X188.404 Y89.846 E.02344
G1 X125.009 Y26.451 E3.24427
G1 X124.361 Y26.451 E.02344
G1 X188.404 Y90.494 E3.27743
G1 X188.404 Y91.141 E.02344
G1 X123.713 Y26.451 E3.31058
G1 X123.065 Y26.451 E.02344
G1 X188.404 Y91.789 E3.34374
G1 X188.404 Y92.437 E.02344
G1 X122.417 Y26.451 E3.37689
G1 X121.769 Y26.451 E.02344
G1 X188.404 Y93.085 E3.41004
G1 X188.404 Y93.733 E.02344
G1 X121.122 Y26.451 E3.4432
G1 X120.474 Y26.451 E.02344
G1 X188.404 Y94.381 E3.47635
G1 X188.404 Y95.028 E.02344
G1 X119.826 Y26.451 E3.50951
G1 X119.178 Y26.451 E.02344
G1 X188.404 Y95.676 E3.54266
G1 X188.404 Y96.324 E.02344
G1 X118.53 Y26.451 E3.57581
G1 X117.882 Y26.451 E.02344
G1 X188.404 Y96.972 E3.60897
G1 X188.404 Y97.62 E.02344
G1 X117.234 Y26.451 E3.64212
G1 X116.587 Y26.451 E.02344
G1 X188.404 Y98.268 E3.67528
G1 X188.404 Y98.916 E.02344
M73 P1 R151
G1 X115.939 Y26.451 E3.70843
G1 X115.291 Y26.451 E.02344
G1 X188.404 Y99.563 E3.74159
G1 X188.404 Y100.211 E.02344
G1 X114.643 Y26.451 E3.77474
G1 X113.995 Y26.451 E.02344
G1 X188.404 Y100.859 E3.80789
G1 X188.404 Y101.507 E.02344
G1 X113.347 Y26.451 E3.84105
G1 X112.699 Y26.451 E.02344
G1 X188.404 Y102.155 E3.8742
G1 X188.403 Y102.803 E.02344
G1 X112.052 Y26.451 E3.90736
G1 X111.404 Y26.451 E.02344
G1 X188.403 Y103.45 E3.94051
G1 X188.403 Y104.098 E.02344
G1 X110.756 Y26.451 E3.97366
G1 X110.108 Y26.451 E.02344
G1 X188.403 Y104.746 E4.00682
G1 X188.403 Y105.394 E.02344
G1 X109.46 Y26.451 E4.03997
G1 X108.812 Y26.451 E.02344
G1 X188.403 Y106.042 E4.07313
G1 X188.403 Y106.69 E.02344
G1 X108.164 Y26.451 E4.10628
G1 X107.517 Y26.451 E.02344
G1 X188.403 Y107.337 E4.13944
G1 X188.403 Y107.985 E.02344
G1 X106.869 Y26.451 E4.17259
G1 X106.221 Y26.451 E.02344
G1 X188.403 Y108.633 E4.20574
G1 X188.403 Y109.281 E.02344
G1 X105.573 Y26.451 E4.2389
G1 X104.925 Y26.451 E.02344
G1 X188.403 Y109.929 E4.27205
G1 X188.403 Y110.577 E.02344
G1 X104.277 Y26.45 E4.30521
G1 X103.629 Y26.45 E.02344
G1 X188.403 Y111.225 E4.33836
G1 X188.403 Y111.872 E.02344
G1 X102.981 Y26.45 E4.37151
G1 X102.334 Y26.45 E.02344
G1 X188.403 Y112.52 E4.40467
G1 X188.403 Y113.168 E.02344
G1 X101.686 Y26.45 E4.43782
G1 X101.038 Y26.45 E.02344
G1 X188.403 Y113.816 E4.47098
G1 X188.403 Y114.464 E.02344
M73 P2 R151
G1 X100.39 Y26.45 E4.50413
G1 X99.742 Y26.45 E.02344
G1 X188.403 Y115.112 E4.53729
;TIME_ELAPSED:295.291718
G1 X188.403 Y115.759 E.02344
G1 X99.094 Y26.45 E4.57044
G1 X98.446 Y26.45 E.02344
G1 X188.403 Y116.407 E4.60359
G1 X188.403 Y117.055 E.02344
G1 X97.799 Y26.45 E4.63675
G1 X97.151 Y26.45 E.02344
G1 X188.403 Y117.703 E4.6699
G1 X188.403 Y118.351 E.02344
G1 X96.503 Y26.45 E4.70306
G1 X95.855 Y26.45 E.02344
G1 X188.403 Y118.999 E4.73621
G1 X188.403 Y119.646 E.02344
G1 X95.207 Y26.45 E4.76936
G1 X94.559 Y26.45 E.02344
G1 X188.403 Y120.294 E4.80252
G1 X188.403 Y120.942 E.02344
G1 X93.911 Y26.45 E4.83567
G1 X93.264 Y26.45 E.02344
G1 X188.403 Y121.59 E4.86883
G1 X188.403 Y122.238 E.02344
G1 X92.616 Y26.45 E4.90198
G1 X91.968 Y26.45 E.02344
M73 P2 R150
G1 X188.403 Y122.886 E4.93514
G1 X188.403 Y123.533 E.02344
G1 X91.32 Y26.45 E4.96829
G1 X90.672 Y26.45 E.02344
G1 X188.403 Y124.181 E5.00144
G1 X188.403 Y124.829 E.02344
G1 X90.024 Y26.45 E5.0346
G1 X89.376 Y26.45 E.02344
G1 X188.403 Y125.477 E5.06775
G1 X188.403 Y126.125 E.02344
G1 X88.729 Y26.45 E5.10091
G1 X88.081 Y26.45 E.02344
G1 X188.403 Y126.773 E5.13406
G1 X188.403 Y127.421 E.02344
G1 X87.433 Y26.45 E5.16722
G1 X86.785 Y26.45 E.02344
G1 X188.403 Y128.068 E5.20037
G1 X188.403 Y128.716 E.02344
G1 X86.137 Y26.45 E5.23352
G1 X85.489 Y26.45 E.02344
G1 X188.403 Y129.364 E5.26668
G1 X188.403 Y130.012 E.02344
G1 X84.841 Y26.45 E5.29983
G1 X84.193 Y26.45 E.02344
G1 X188.403 Y130.66 E5.33299
G1 X188.403 Y131.308 E.02344
G1 X83.546 Y26.45 E5.36614
G1 X82.898 Y26.45 E.02344
G1 X188.403 Y131.955 E5.39929
G1 X188.403 Y132.603 E.02344
