;TIME:9996.82
;Filament used:25.55217m
;Layer height:0.200
; HEADER_BLOCK_START
; generated by Creality_Print V6.3.1.3548 on 2025-12-21 at 16:45:18
; total layer number: 84
; filament_density: 1.24,1.27
; filament_diameter: 1.75,1.75
; max_z_height: 15.00
; creality_uuid: aef6d5f7-a1ff-4154-a2d8-29364d2d3424
; HEADER_BLOCK_END

; MINX = 26.13
; MINY = 49.18
; MINZ = 0.00
; MAXX = 195.63
; MAXY = 175.18
; MAXZ = 15.00

; multicolor_method = 0 
; THUMBNAIL_BLOCK_START

;
; THUMBNAIL_BLOCK_END

; THUMBNAIL_BLOCK_START

;
; THUMBNAIL_BLOCK_END

; external perimeters extrusion width = 0.42mm
; perimeters extrusion width = 0.45mm
; infill extrusion width = 0.45mm
; solid infill extrusion width = 0.42mm
; top infill extrusion width = 0.42mm
; support material extrusion width = 0.40mm
; first layer extrusion width = 0.50mm

; EXECUTABLE_BLOCK_START
M73 P0 R166
M201 X5000 Y5000 Z500 E5000
M203 X500 Y500 Z30 E100
M204 P5000 R2500 T5000 ; sets acceleration (P, T) and retract acceleration (R), mm/sec^2
M205 X10.00 Y10.00 Z0.40 E5.00 ; sets the jerk limits, mm/sec
; max_print_temp = 57,225
;TYPE:Custom
M220 S100 ;Reset Feedrate 
M221 S100 ;Reset Flowrate 
 
M140 S57 ;Set final bed temp 
G28 ;Home 
 
G92 E0 ;Reset Extruder 
G1 Z2.0 F3000 ;Move Z Axis up 
M104 S225 ;Set final nozzle temp 
G1 X-2.1 Y20 Z0.28 F5000.0 ;Move to start position 
M190 S57 ;Wait for bed temp to stabilize 
M109 S225 ;Wait for nozzle temp to stabilize 
G1 X-2.1 Y145.0 Z0.28 F1500.0 E15 ;Draw the first line 
G1 X-2.4 Y145.0 Z0.28 F5000.0 ;Move to side a little 
G1 X-2.4 Y20 Z0.28 F1500.0 E30 ;Draw the second line 
G92 E0  ;Reset Extruder 
G1 E-1.0000 F1800 ;Retract a bit 
G1 Z2.0 F3000 ;Move Z Axis up 
G1 E0.0000 F1800
G90
G21
M83 ; use relative distances for extrusion
;filament start gcode
; MANUAL_TOOL_CHANGE T0
G1 E-1.2 F2400
G1 Z.2 F9000
M106 S0
;LAYER_CHANGE
;Z:0.2
;HEIGHT:0.2
;BEFORE_LAYER_CHANGE
;0.2
G92 E0

;_SET_FAN_SPEED_CHANGING_LAYER
M204 P500
M205 X10 Y10
; printing object Body_11 id:0 copy 0
M204 T500
G1 X198.52 Y156.964 Z.4 F9000
G1 Z.2
G1 E1.2 F1800
;TYPE:Support
;WIDTH:0.5
G1 X196.078 Y156.964 E.08819
G1 X196.078 Y130.25 E.96452
G1 X198.52 Y130.25 E.08818
G1 X198.52 Y156.895 E.96204
G1 X197.725 Y156.758 F9000
G1 F1800
G1 X197.725 Y130.662 E.94224
G1 X197.217 Y130.662 E.01834
G1 X197.217 Y156.553 E.93481
G1 X196.709 Y156.553 E.01834
G1 X196.709 Y130.456 E.94224
G1 E-1.2 F2400
;WIPE_START
G1 F9000
G1 X196.709 Y132.456
;WIPE_END
G1 X192.983 Y133.284 Z.4
G1 X27.459 Y170.057 Z.4
G1 Z.2
G1 E1.2 F1800
;TYPE:Inner wall
;WIDTH:0.499999
G1 X27.444 Y169.9 E.00571
G1 X27.446 Y54.6 E4.16299
G1 X27.471 Y54.087 E.01855
G1 X27.612 Y53.354 E.02696
G3 X29.327 Y51.192 I3.891 J1.325 E.10162
G1 X29.866 Y50.9 E.02212
G3 X31.793 Y50.493 I2.065 J5.022 E.07152
G1 X189.801 Y50.493 E5.70503
G3 X191.017 Y50.609 I-.048 J6.931 E.04414
G3 X192.24 Y51.073 I-1.198 J5.005 E.04736
G3 X193.217 Y51.815 I-2.388 J4.16 E.0444
G1 X193.635 Y52.336 E.02412
G3 X194.257 Y53.864 I-3.45 J2.297 E.06001
G1 X194.315 Y54.554 E.025
G1 X194.313 Y169.758 E4.15954
G1 X194.288 Y170.271 E.01854
G1 X194.147 Y171.005 E.02696
G3 X192.432 Y173.167 I-3.891 J-1.325 E.10163
G1 X191.893 Y173.459 E.02211
G3 X189.966 Y173.865 I-2.065 J-5.022 E.07152
G1 X31.528 Y173.862 E5.72056
G1 X30.742 Y173.749 E.02865
M73 P0 R165
G3 X29.519 Y173.285 I1.198 J-5.005 E.04736
G3 X28.542 Y172.544 I2.387 J-4.16 E.0444
G1 X28.124 Y172.023 E.02412
G3 X27.502 Y170.494 I3.22 J-2.203 E.06006
G1 X27.463 Y170.097 E.01441
G1 X27.036 Y170.417 F9000
G1 F1800
G1 X26.987 Y169.911 E.01838
G1 X26.989 Y54.587 E4.16389
G3 X27.879 Y51.899 I4.388 J-.037 E.10411
G3 X29.263 Y50.692 I4.048 J3.246 E.06663
G3 X31.788 Y50.036 I2.559 J4.663 E.09519
G1 X189.801 Y50.036 E5.7052
G3 X191.117 Y50.163 I-.051 J7.442 E.04777
G3 X192.856 Y50.917 I-1.395 J5.599 E.06878
G1 X193.403 Y51.364 E.02549
G3 X194.772 Y54.555 I-2.845 J3.11 E.1292
G1 X194.77 Y169.772 E4.16004
G3 X193.88 Y172.46 I-4.387 J.038 E.1041
G3 X192.496 Y173.666 I-4.049 J-3.246 E.06663
G3 X189.971 Y174.322 I-2.559 J-4.663 E.09518
G1 X31.561 Y174.319 E5.71953
G3 X28.541 Y173.166 I.292 J-5.294 E.1186
G3 X27.053 Y170.572 I2.86 J-3.365 E.11017
G1 X27.04 Y170.457 E.00416
G1 X26.665 Y171.021 F9000
;TYPE:Outer wall
G1 F1800
;TIME_ELAPSED:68.684875
G3 X26.529 Y169.922 I7.379 J-1.467 E.04002
G1 X26.531 Y54.306 E4.17441
G3 X27.723 Y51.352 I4.811 J.223 E.11724
G1 X28.232 Y50.855 E.02566
G3 X31.784 Y49.579 I3.595 J4.426 E.13888
G1 X189.801 Y49.579 E5.70538
G3 X192.471 Y50.168 I.083 J5.975 E.0996
G3 X195.094 Y53.338 I-2.183 J4.476 E.15313
G1 X195.208 Y53.998 E.02419
G1 X195.229 Y54.555 E.02012
G1 X195.227 Y170.054 E4.1702
G3 X194.036 Y173.007 I-4.811 J-.224 E.11719
G1 X193.527 Y173.503 E.02567
G3 X189.975 Y174.779 I-3.595 J-4.426 E.13888
G1 X31.493 Y174.777 E5.72214
G3 X28.432 Y173.657 I.396 J-5.829 E.11929
G3 X26.675 Y171.059 I2.977 J-3.905 E.11522
G1 E-1.2 F2400
;WIPE_START
G1 F9000
G1 X26.601 Y170.65
G1 X26.529 Y169.922
G1 X26.529 Y169.07
;WIPE_END
G1 X191.024 Y50.754 Z.4
G1 Z.4
G1 Z.2
G1 E1.2 F1800
;TYPE:Bottom surface
;WIDTH:0.500022
G1 F4800
G1 X193.85 Y53.58 E.14431
G1 X193.871 Y53.643 E.00243
G3 X193.966 Y54.342 I-2.784 J.735 E.02553
G1 X190.496 Y50.872 E.17723
G2 X189.814 Y50.836 I-.623 J5.427 E.02467
G1 X193.973 Y54.995 E.21235
G1 X193.973 Y55.641 E.02334
G1 X189.168 Y50.836 E.24536
G1 X188.521 Y50.836 E.02334
G1 X193.972 Y56.288 E.27837
G1 X193.972 Y56.934 E.02334
G1 X187.875 Y50.836 E.31138
G1 X187.228 Y50.836 E.02334
G1 X193.972 Y57.58 E.34439
G1 X193.972 Y58.227 E.02334
G1 X186.582 Y50.836 E.3774
G1 X185.935 Y50.836 E.02334
G1 X193.972 Y58.873 E.41041
G1 X193.972 Y59.52 E.02334
G1 X185.289 Y50.836 E.44342
G1 X184.642 Y50.836 E.02334
G1 X193.972 Y60.166 E.47643
G1 X193.972 Y60.813 E.02334
G1 X183.996 Y50.836 E.50944
G1 X183.35 Y50.836 E.02334
G1 X193.972 Y61.459 E.54244
G1 X193.972 Y62.105 E.02334
G1 X182.703 Y50.836 E.57545
G1 X182.057 Y50.836 E.02334
G1 X193.972 Y62.752 E.60846
G1 X193.972 Y63.398 E.02334
G1 X181.41 Y50.836 E.64147
G1 X180.764 Y50.836 E.02334
G1 X193.972 Y64.045 E.67448
G1 X193.972 Y64.691 E.02334
G1 X180.117 Y50.836 E.70749
G1 X179.471 Y50.836 E.02334
G1 X193.972 Y65.338 E.7405
G1 X193.972 Y65.984 E.02334
G1 X178.825 Y50.836 E.77351
G1 X178.178 Y50.836 E.02334
G1 X193.972 Y66.63 E.80652
G1 X193.972 Y67.277 E.02334
G1 X177.532 Y50.836 E.83953
G1 X176.885 Y50.836 E.02334
G1 X193.972 Y67.923 E.87254
G1 X193.972 Y68.57 E.02334
G1 X176.239 Y50.836 E.90555
G1 X175.592 Y50.836 E.02334
G1 X193.972 Y69.216 E.93856
G1 X193.972 Y69.863 E.02334
G1 X174.946 Y50.836 E.97157
G1 X174.299 Y50.836 E.02334
G1 X193.972 Y70.509 E1.00458
G1 X193.972 Y71.155 E.02334
G1 X173.653 Y50.836 E1.03758
G1 X173.007 Y50.836 E.02334
G1 X193.972 Y71.802 E1.07059
G1 X193.972 Y72.448 E.02334
;TIME_ELAPSED:126.615013
G1 X172.36 Y50.836 E1.1036
G1 X171.714 Y50.836 E.02334
G1 X193.972 Y73.095 E1.13661
G1 X193.972 Y73.741 E.02334
G1 X171.067 Y50.836 E1.16962
G1 X170.421 Y50.836 E.02334
G1 X193.972 Y74.388 E1.20263
G1 X193.972 Y75.034 E.02334
G1 X169.774 Y50.836 E1.23564
G1 X169.128 Y50.836 E.02334
G1 X193.972 Y75.68 E1.26865
G1 X193.972 Y76.327 E.02334
G1 X168.481 Y50.836 E1.30166
G1 X167.835 Y50.836 E.02334
G1 X193.972 Y76.973 E1.33467
G1 X193.972 Y77.62 E.02334
G1 X167.189 Y50.836 E1.36768
G1 X166.542 Y50.836 E.02334
G1 X193.972 Y78.266 E1.40069
G1 X193.972 Y78.913 E.02334
G1 X165.896 Y50.836 E1.4337
G1 X165.249 Y50.836 E.02334
G1 X193.972 Y79.559 E1.46671
G1 X193.972 Y80.205 E.02334
G1 X164.603 Y50.836 E1.49971
G1 X163.956 Y50.836 E.02334
G1 X193.972 Y80.852 E1.53272
G1 X193.972 Y81.498 E.02334
G1 X163.31 Y50.836 E1.56573
G1 X162.664 Y50.836 E.02334
M73 P0 R164
G1 X193.972 Y82.145 E1.59874
G1 X193.972 Y82.791 E.02334
G1 X162.017 Y50.836 E1.63175
G1 X161.371 Y50.836 E.02334
G1 X193.972 Y83.438 E1.66476
G1 X193.972 Y84.084 E.02334
G1 X160.724 Y50.836 E1.69777
G1 X160.078 Y50.836 E.02334
M73 P1 R164
G1 X193.972 Y84.73 E1.73078
G1 X193.972 Y85.377 E.02334
G1 X159.431 Y50.836 E1.76379
G1 X158.785 Y50.836 E.02334
G1 X193.972 Y86.023 E1.7968
G1 X193.972 Y86.67 E.02334
G1 X158.138 Y50.836 E1.82981
G1 X157.492 Y50.836 E.02334
G1 X193.972 Y87.316 E1.86282
G1 X193.972 Y87.963 E.02334
G1 X156.846 Y50.836 E1.89583
G1 X156.199 Y50.836 E.02334
G1 X193.972 Y88.609 E1.92884
G1 X193.972 Y89.255 E.02334
G1 X155.553 Y50.836 E1.96184
G1 X154.906 Y50.836 E.02334
G1 X193.972 Y89.902 E1.99485
G1 X193.972 Y90.548 E.02334
G1 X154.26 Y50.836 E2.02786
G1 X153.613 Y50.836 E.02334
G1 X193.972 Y91.195 E2.06087
G1 X193.972 Y91.841 E.02334
G1 X152.967 Y50.836 E2.09388
G1 X152.32 Y50.836 E.02334
G1 X193.972 Y92.488 E2.12689
G1 X193.972 Y93.134 E.02334
G1 X151.674 Y50.836 E2.1599
G1 X151.028 Y50.836 E.02334
G1 X193.972 Y93.78 E2.19291
G1 X193.972 Y94.427 E.02334
G1 X150.381 Y50.836 E2.22592
G1 X149.735 Y50.836 E.02334
G1 X193.972 Y95.073 E2.25893
G1 X193.972 Y95.72 E.02334
G1 X149.088 Y50.836 E2.29194
G1 X148.442 Y50.836 E.02334
G1 X193.972 Y96.366 E2.32495
G1 X193.972 Y97.013 E.02334
G1 X147.795 Y50.836 E2.35796
G1 X147.149 Y50.836 E.02334
G1 X193.972 Y97.659 E2.39097
G1 X193.972 Y98.305 E.02334
G1 X146.503 Y50.836 E2.42398
G1 X145.856 Y50.836 E.02334
G1 X193.972 Y98.952 E2.45698
G1 X193.972 Y99.598 E.02334
G1 X145.21 Y50.836 E2.48999
G1 X144.563 Y50.836 E.02334
G1 X193.972 Y100.245 E2.523
G1 X193.972 Y100.891 E.02334
G1 X143.917 Y50.836 E2.55601
G1 X143.27 Y50.836 E.02334
;TIME_ELAPSED:184.545151
G1 X193.972 Y101.538 E2.58902
G1 X193.972 Y102.184 E.02334
G1 X142.624 Y50.836 E2.62203
G1 X141.977 Y50.836 E.02334
G1 X193.972 Y102.83 E2.65504
G1 X193.972 Y103.477 E.02334
G1 X141.331 Y50.836 E2.68805
G1 X140.685 Y50.836 E.02334
G1 X193.972 Y104.123 E2.72106
G1 X193.972 Y104.77 E.02334
G1 X140.038 Y50.836 E2.75407
G1 X139.392 Y50.836 E.02334
G1 X193.972 Y105.416 E2.78708
G1 X193.972 Y106.063 E.02334
G1 X138.745 Y50.836 E2.82009
G1 X138.099 Y50.836 E.02334
G1 X193.972 Y106.709 E2.8531
G1 X193.972 Y107.355 E.02334
G1 X137.452 Y50.836 E2.88611
G1 X136.806 Y50.836 E.02334
G1 X193.972 Y108.002 E2.91911
G1 X193.972 Y108.648 E.02334
G1 X136.159 Y50.836 E2.95212
G1 X135.513 Y50.836 E.02334
G1 X193.972 Y109.295 E2.98513
G1 X193.972 Y109.941 E.02334
G1 X134.867 Y50.836 E3.01814
G1 X134.22 Y50.836 E.02334
G1 X193.972 Y110.588 E3.05115
G1 X193.972 Y111.234 E.02334
G1 X133.574 Y50.836 E3.08416
G1 X132.927 Y50.836 E.02334
G1 X193.972 Y111.88 E3.11717
G1 X193.972 Y112.527 E.02334
G1 X132.281 Y50.836 E3.15018
G1 X131.634 Y50.836 E.02334
G1 X193.972 Y113.173 E3.18319
G1 X193.971 Y113.82 E.02334
G1 X130.988 Y50.836 E3.2162
G1 X130.342 Y50.836 E.02334
G1 X193.971 Y114.466 E3.24921
G1 X193.971 Y115.113 E.02334
G1 X129.695 Y50.836 E3.28222
G1 X129.049 Y50.836 E.02334
G1 X193.971 Y115.759 E3.31523
G1 X193.971 Y116.405 E.02334
G1 X128.402 Y50.836 E3.34824
G1 X127.756 Y50.836 E.02334
G1 X193.971 Y117.052 E3.38124
G1 X193.971 Y117.698 E.02334
G1 X127.109 Y50.836 E3.41425
G1 X126.463 Y50.836 E.02334
G1 X193.971 Y118.345 E3.44726
G1 X193.971 Y118.991 E.02334
G1 X125.816 Y50.836 E3.48027
G1 X125.17 Y50.836 E.02334
M73 P1 R163
G1 X193.971 Y119.638 E3.51328
G1 X193.971 Y120.284 E.02334
G1 X124.524 Y50.836 E3.54629
G1 X123.877 Y50.836 E.02334
G1 X193.971 Y120.93 E3.5793
G1 X193.971 Y121.577 E.02334
G1 X123.231 Y50.836 E3.61231
G1 X122.584 Y50.836 E.02334
G1 X193.971 Y122.223 E3.64532
G1 X193.971 Y122.87 E.02334
G1 X121.938 Y50.836 E3.67833
G1 X121.291 Y50.836 E.02334
G1 X193.971 Y123.516 E3.71134
G1 X193.971 Y124.163 E.02334
G1 X120.645 Y50.836 E3.74435
G1 X119.998 Y50.836 E.02334
G1 X193.971 Y124.809 E3.77736
G1 X193.971 Y125.455 E.02334
G1 X119.352 Y50.836 E3.81037
G1 X118.706 Y50.836 E.02334
G1 X193.971 Y126.102 E3.84337
G1 X193.971 Y126.748 E.02334
G1 X118.059 Y50.836 E3.87638
G1 X117.413 Y50.836 E.02334
G1 X193.971 Y127.395 E3.90939
G1 X193.971 Y128.041 E.02334
G1 X116.766 Y50.836 E3.9424
G1 X116.12 Y50.836 E.02334
G1 X193.971 Y128.688 E3.97541
G1 X193.971 Y129.334 E.02334
G1 X115.473 Y50.836 E4.00842
G1 X114.827 Y50.836 E.02334
G1 X193.971 Y129.98 E4.04143
G1 X193.971 Y130.627 E.02334
;TIME_ELAPSED:242.475281
G1 X114.181 Y50.836 E4.07444
G1 X113.534 Y50.836 E.02334
G1 X193.971 Y131.273 E4.10745
G1 X193.971 Y131.92 E.02334
G1 X112.888 Y50.836 E4.14046
G1 X112.241 Y50.836 E.02334
G1 X193.971 Y132.566 E4.17347
G1 X193.971 Y133.213 E.02334
G1 X111.595 Y50.836 E4.20648
G1 X110.948 Y50.836 E.02334
G1 X193.971 Y133.859 E4.23949
G1 X193.971 Y134.505 E.02334
G1 X110.302 Y50.836 E4.2725
G1 X109.655 Y50.836 E.02334
G1 X193.971 Y135.152 E4.30551
G1 X193.971 Y135.798 E.02334
G1 X109.009 Y50.836 E4.33851
G1 X108.363 Y50.836 E.02334
G1 X193.971 Y136.445 E4.37152
G1 X193.971 Y137.091 E.02334
G1 X107.716 Y50.836 E4.40453
G1 X107.07 Y50.836 E.02334
M73 P2 R163
G1 X193.971 Y137.738 E4.43754
G1 X193.971 Y138.384 E.02334
G1 X106.423 Y50.836 E4.47055
G1 X105.777 Y50.836 E.02334
G1 X193.971 Y139.03 E4.50356
G1 X193.971 Y139.677 E.02334
G1 X105.13 Y50.836 E4.53657
G1 X104.484 Y50.836 E.02334
G1 X193.971 Y140.323 E4.56958
G1 X193.971 Y140.97 E.02334
G1 X103.837 Y50.836 E4.60259
G1 X103.191 Y50.836 E.02334
G1 X193.971 Y141.616 E4.6356
G1 X193.971 Y142.263 E.02334
G1 X102.545 Y50.836 E4.66861
G1 X101.898 Y50.836 E.02334
G1 X193.971 Y142.909 E4.70162
G1 X193.971 Y143.555 E.02334
G1 X101.252 Y50.836 E4.73463
G1 X100.605 Y50.836 E.02334
M73 P2 R162
G1 X193.971 Y144.202 E4.76764
G1 X193.971 Y144.848 E.02334
G1 X99.959 Y50.836 E4.80064
G1 X99.312 Y50.836 E.02334
G1 X193.971 Y145.495 E4.83365
G1 X193.971 Y146.141 E.02334
G1 X98.666 Y50.836 E4.86666
G1 X98.02 Y50.836 E.02334
G1 X193.971 Y146.788 E4.89967
G1 X193.971 Y147.434 E.02334
G1 X97.373 Y50.836 E4.93268
G1 X96.727 Y50.836 E.02334
G1 X193.971 Y148.08 E4.96569
G1 X193.971 Y148.727 E.02334
G1 X96.08 Y50.836 E4.9987
G1 X95.434 Y50.836 E.02334
G1 X193.971 Y149.373 E5.03171
G1 X193.971 Y150.02 E.02334
G1 X94.787 Y50.836 E5.06472
G1 X94.141 Y50.836 E.02334
G1 X193.971 Y150.666 E5.09773
G1 X193.971 Y151.313 E.02334
G1 X93.494 Y50.836 E5.13074
G1 X92.848 Y50.836 E.02334
G1 X193.971 Y151.959 E5.16375
G1 X193.971 Y152.605 E.02334
G1 X92.202 Y50.836 E5.19676
G1 X91.555 Y50.836 E.02334
G1 X193.971 Y153.252 E5.22977
G1 X193.971 Y153.898 E.02334
G1 X90.909 Y50.836 E5.26277
G1 X90.262 Y50.836 E.02334
G1 X193.971 Y154.545 E5.29578
G1 X193.971 Y155.191 E.02334
G1 X89.616 Y50.836 E5.32879
G1 X88.969 Y50.836 E.02334
G1 X193.971 Y155.838 E5.3618
G1 X193.971 Y156.484 E.02334
G1 X88.323 Y50.836 E5.39481
G1 X87.676 Y50.836 E.02334
G1 X193.971 Y157.13 E5.42782
G1 X193.971 Y157.777 E.02334
G1 X87.03 Y50.836 E5.46083
G1 X86.384 Y50.836 E.02334
G1 X193.971 Y158.423 E5.49384
G1 X193.971 Y159.07 E.02334
G1 X85.737 Y50.836 E5.52685
G1 X85.091 Y50.836 E.02334
;TIME_ELAPSED:300.405396
G1 X193.971 Y159.716 E5.55986
G1 X193.971 Y160.363 E.02334
G1 X84.444 Y50.836 E5.59287
G1 X83.798 Y50.836 E.02334
G1 X193.971 Y161.009 E5.62588
G1 X193.971 Y161.655 E.02334
G1 X83.151 Y50.836 E5.65889
G1 X82.505 Y50.836 E.02334
G1 X193.971 Y162.302 E5.6919
G1 X193.971 Y162.948 E.02334
G1 X81.859 Y50.836 E5.7249
G1 X81.212 Y50.836 E.02334
G1 X193.971 Y163.595 E5.75791
G1 X193.971 Y164.241 E.02334
M73 P2 R161
G1 X80.566 Y50.836 E5.79092
G1 X79.919 Y50.836 E.02334
G1 X193.971 Y164.888 E5.82393
G1 X193.971 Y165.534 E.02334
G1 X79.273 Y50.836 E5.85694
G1 X78.626 Y50.836 E.02334
G1 X193.971 Y166.18 E5.88995
G1 X193.971 Y166.827 E.02334
G1 X77.98 Y50.836 E5.92296
G1 X77.333 Y50.836 E.02334
G1 X193.971 Y167.473 E5.95597
G1 X193.971 Y168.12 E.02334
G1 X76.687 Y50.836 E5.98898
G1 X76.041 Y50.836 E.02334
G1 X193.971 Y168.766 E6.02199
G1 X193.971 Y169.413 E.02334
G1 X75.394 Y50.836 E6.055
G1 X74.748 Y50.836 E.02334
G1 X193.965 Y170.053 E6.0877
G3 X193.886 Y170.621 I-2.088 J.002 E.02078
M73 P3 R161
G1 X74.101 Y50.836 E6.11672
G1 X73.455 Y50.836 E.02334
G1 X193.735 Y171.116 E6.142
G3 X193.526 Y171.554 I-1.664 J-.527 E.01756
G1 X72.808 Y50.836 E6.16433
G1 X72.162 Y50.836 E.02334
G1 X193.268 Y171.943 E6.18419
G3 X192.97 Y172.291 I-1.363 J-.866 E.01661
G1 X71.515 Y50.836 E6.20197
G1 X70.869 Y50.836 E.02334
G1 X192.636 Y172.603 E6.21792
G3 X192.258 Y172.871 I-1.609 J-1.87 E.01677
