;TIME:5667.24
;Filament used:10.72747m
;Layer height:0.200
; HEADER_BLOCK_START
; generated by Creality_Print V6.3.1.3548 on 2025-12-20 at 20:16:43
; total layer number: 16
; filament_density: 1.24,1.27
; filament_diameter: 1.75,1.75
; max_z_height: 3.20
; creality_uuid: 0137aba5-1a41-4fac-8bee-b0e8ba52af2a
; HEADER_BLOCK_END

; MINX = 25.81
; MINY = 50.89
; MINZ = 0.00
; MAXX = 196.89
; MAXY = 188.43
; MAXZ = 3.19

; multicolor_method = 0 
; THUMBNAIL_BLOCK_START

;
; THUMBNAIL_BLOCK_END

; THUMBNAIL_BLOCK_START

;
; THUMBNAIL_BLOCK_END

; external perimeters extrusion width = 0.42mm
; perimeters extrusion width = 0.45mm
; infill extrusion width = 0.45mm
; solid infill extrusion width = 0.42mm
; top infill extrusion width = 0.42mm
; first layer extrusion width = 0.50mm

; EXECUTABLE_BLOCK_START
M73 P0 R94
M201 X5000 Y5000 Z500 E5000
M203 X500 Y500 Z30 E100
M204 P5000 R2500 T5000 ; sets acceleration (P, T) and retract acceleration (R), mm/sec^2
M205 X10.00 Y10.00 Z0.40 E5.00 ; sets the jerk limits, mm/sec
; max_print_temp = 57,225
;TYPE:Custom
M220 S100 ;Reset Feedrate 
M221 S100 ;Reset Flowrate 
 
M140 S57 ;Set final bed temp 
G28 ;Home 
 
G92 E0 ;Reset Extruder 
G1 Z2.0 F3000 ;Move Z Axis up 
M104 S225 ;Set final nozzle temp 
G1 X-2.1 Y20 Z0.28 F5000.0 ;Move to start position 
M190 S57 ;Wait for bed temp to stabilize 
M109 S225 ;Wait for nozzle temp to stabilize 
G1 X-2.1 Y145.0 Z0.28 F1500.0 E15 ;Draw the first line 
G1 X-2.4 Y145.0 Z0.28 F5000.0 ;Move to side a little 
G1 X-2.4 Y20 Z0.28 F1500.0 E30 ;Draw the second line 
G92 E0  ;Reset Extruder 
G1 E-1.0000 F1800 ;Retract a bit 
G1 Z2.0 F3000 ;Move Z Axis up 
G1 E0.0000 F1800
G90
G21
M83 ; use relative distances for extrusion
;filament start gcode
; MANUAL_TOOL_CHANGE T0
G1 E-1.2 F2400
G1 Z.2 F9000
M106 S0
;LAYER_CHANGE
;Z:0.2
;HEIGHT:0.2
;BEFORE_LAYER_CHANGE
;0.2
G92 E0

;_SET_FAN_SPEED_CHANGING_LAYER
M204 P500
M205 X10 Y10
; printing object keyboard_up id:19140581889540161 copy 0
M204 T500
G1 X105.117 Y150.584 Z.4 F9000
G1 Z.2
G1 E1.2 F1800
;TYPE:Inner wall
;WIDTH:0.499999
G1 X105.049 Y150.544 E.00285
G1 X104.396 Y150.338 E.02471
G1 X103.728 Y150.263 E.02428
G1 X29.666 Y150.259 E2.67408
G1 X29.129 Y150.211 E.01947
G1 X28.605 Y150.037 E.01992
G1 X28.126 Y149.763 E.01994
G1 X27.727 Y149.378 E.02
G1 X27.412 Y148.923 E.01999
G1 X27.216 Y148.403 E.02007
G1 X27.124 Y147.836 E.02074
G1 X27.121 Y71.446 E2.75815
G1 X27.152 Y70.925 E.01883
G1 X27.304 Y70.384 E.02028
G1 X27.56 Y69.885 E.02023
G1 X27.93 Y69.465 E.02021
G1 X28.389 Y69.119 E.02078
G3 X97.367 Y52.214 I68.975 J132.266 E2.58907
G1 X171.843 Y52.214 E2.68903
G1 X172.431 Y52.284 E.02139
G1 X172.951 Y52.457 E.01979
G1 X173.415 Y52.752 E.01985
G1 X173.813 Y53.131 E.01984
G1 X174.107 Y53.598 E.01992
G1 X174.305 Y54.112 E.01989
G1 X174.383 Y54.752 E.02326
G1 X174.387 Y150.225 E3.44715
G1 X174.495 Y151.015 E.0288
G1 X174.698 Y151.724 E.02662
G1 X175 Y152.396 E.02662
G1 X175.449 Y153.082 E.0296
G1 X175.876 Y153.577 E.02361
G1 X176.519 Y154.121 E.0304
G1 X176.948 Y154.406 E.0186
G1 X194.999 Y164.831 E.75263
G1 X195.322 Y165.152 E.01646
G1 X195.526 Y165.554 E.01626
G1 X195.538 Y166.156 E.02176
G1 X195.423 Y166.471 E.01211
G1 X183.881 Y186.47 E.8337
G1 X183.493 Y186.841 E.01937
G1 X183.081 Y186.995 E.01589
G1 X182.642 Y187.008 E.01587
G1 X182.169 Y186.828 E.01828
G1 X180.714 Y185.94 E.06154
G2 X107.778 Y156.567 I-125.677 J206.828 E2.85159
G1 X107.493 Y156.469 E.01087
M73 P0 R93
G1 X107.111 Y156.232 E.01623
G1 X106.857 Y155.865 E.01614
G1 X106.734 Y155.432 E.01625
G1 X106.79 Y154.949 E.01755
G1 X106.981 Y154.138 E.0301
G1 X107.023 Y153.35 E.02849
G1 X106.913 Y152.703 E.02369
G1 X106.665 Y152.069 E.02455
G1 X106.3 Y151.496 E.02456
G1 X105.926 Y151.107 E.01948
G1 X105.685 Y150.919 E.01105
G1 X105.151 Y150.604 E.02237
G1 X105.398 Y151.279 F9000
G1 F1800
G1 X104.893 Y150.974 E.02131
G1 X104.339 Y150.791 E.02104
G1 X103.728 Y150.72 E.02224
G1 X29.666 Y150.716 E2.67408
G1 X29.038 Y150.661 E.02273
G1 X28.418 Y150.454 E.0236
G1 X27.851 Y150.129 E.02361
G1 X27.379 Y149.674 E.02366
G1 X27.006 Y149.136 E.02365
G1 X26.775 Y148.521 E.02372
G1 X26.667 Y147.862 E.02412
G1 X26.664 Y71.446 E2.75909
G1 X26.699 Y70.857 E.0213
G1 X26.879 Y70.217 E.02398
G1 X27.181 Y69.627 E.02393
G1 X27.619 Y69.131 E.02391
G1 X28.155 Y68.725 E.02425
G3 X97.365 Y51.757 I69.21 J132.661 E2.59787
G1 X171.558 Y51.757 E2.6788
G1 X172.103 Y51.775 E.0197
G1 X172.743 Y51.886 E.02345
G1 X173.337 Y52.15 E.02347
G1 X173.868 Y52.525 E.02347
G1 X174.293 Y53.02 E.02354
G1 X174.613 Y53.587 E.02351
G1 X174.786 Y54.215 E.02353
G1 X174.84 Y54.74 E.01907
G1 X174.844 Y150.193 E3.44639
G1 X174.936 Y150.896 E.02562
G1 X175.118 Y151.543 E.02426
G1 X175.39 Y152.157 E.02425
G1 X175.8 Y152.79 E.02723
G1 X176.182 Y153.238 E.02124
G2 X177.176 Y154.011 I3.379 J-3.322 E.04561
G1 X195.097 Y164.359 E.74717
G1 X195.566 Y164.714 E.02124
G1 X195.813 Y165.048 E.015
G1 X195.971 Y165.433 E.01502
G1 X196.03 Y165.845 E.01503
G1 X195.987 Y166.26 E.01506
G1 X195.839 Y166.665 E.01558
G1 X184.383 Y186.515 E.82749
G3 X183.554 Y187.317 I-1.803 J-1.034 E.04222
G1 X183.169 Y187.443 E.01461
G1 X182.766 Y187.472 E.01459
G1 X182.368 Y187.403 E.01459
G1 X181.943 Y187.226 E.01663
G1 X180.476 Y186.33 E.06206
G2 X107.676 Y157.013 I-125.439 J206.438 E2.84626
G1 X107.125 Y156.812 E.02119
G1 X106.793 Y156.566 E.01489
G1 X106.531 Y156.246 E.01492
G1 X106.355 Y155.872 E.01495
G1 X106.275 Y155.465 E.01496
G3 X106.526 Y154.097 I5.868 J.37 E.05033
G1 X106.57 Y153.411 E.02484
G1 X106.481 Y152.852 E.02044
G1 X106.277 Y152.31 E.0209
G1 X105.901 Y151.734 E.02484
G1 X105.438 Y151.303 E.02282
G1 X105.432 Y151.3 E.00024
G1 X105.627 Y152.138 F9000
;TYPE:Outer wall
G1 F1800
G1 X105.574 Y152.054 E.00357
G1 X105.191 Y151.688 E.01915
G1 X104.759 Y151.413 E.01848
G1 X104.283 Y151.245 E.01823
G1 X103.728 Y151.177 E.0202
G1 X29.452 Y151.173 E2.6818
G3 X26.21 Y147.888 I.178 J-3.418 E.18286
G1 X26.207 Y71.31 E2.76492
G3 X27.92 Y68.332 I3.49 J.025 E.1297
G3 X97.363 Y51.3 I69.445 J133.057 E2.60667
G1 X171.558 Y51.3 E2.67887
G3 X173.563 Y51.753 I.158 J3.962 E.07507
M73 P1 R93
G3 X175.297 Y54.729 I-1.776 J3.028 E.13
G1 X175.302 Y150.162 E3.4457
G2 X175.779 Y151.918 I4.755 J-.351 E.06611
G1 X176.152 Y152.498 E.02486
G2 X177.405 Y153.615 I3.691 J-2.88 E.06094
G1 X195.486 Y164.056 E.75386
G1 X195.9 Y164.397 E.01937
G1 X196.214 Y164.822 E.0191
G1 X196.415 Y165.312 E.01911
G1 X196.49 Y165.836 E.01912
G1 X196.435 Y166.363 E.01913
G1 X196.255 Y166.859 E.01905
G1 X184.709 Y186.864 E.83396
G1 X184.386 Y187.293 E.01939
G1 X183.983 Y187.621 E.01878
G1 X183.512 Y187.842 E.01877
G1 X183.002 Y187.942 E.01875
G1 X182.484 Y187.915 E.01875
G3 X181.717 Y187.623 I.913 J-3.551 E.0297
G2 X107.392 Y157.416 I-126.551 J204.839 E2.9103
G1 X106.898 Y157.212 E.0193
G1 X106.476 Y156.899 E.01898
G1 X106.142 Y156.492 E.019
G1 X105.917 Y156.016 E.01902
G1 X105.815 Y155.498 E.01904
G1 X105.842 Y154.966 E.01923
G1 X106.064 Y154.093 E.03254
G1 X106.111 Y153.594 E.01809
G1 X106.058 Y153.035 E.02028
G1 X105.888 Y152.55 E.01855
G1 X105.649 Y152.171 E.01617
G1 E-1.2 F2400
;WIPE_START
G1 F9000
G1 X105.574 Y152.054
G1 X105.191 Y151.688
G1 X104.759 Y151.413
G1 X104.283 Y151.245
G1 X103.971 Y151.207
;WIPE_END
G1 X107.575 Y152.462 Z.4
G1 X167.229 Y173.237 Z.4
G1 Z.2
G1 E1.2 F1800
;TYPE:Inner wall
G1 X167.205 Y173.178 E.0023
G1 X167.176 Y172.558 E.02241
G1 X167.357 Y171.962 E.02248
G1 X173.908 Y160.615 E.47309
G1 X174.275 Y160.169 E.02085
G1 X174.727 Y159.875 E.01946
G1 X175.02 Y159.784 E.01109
G1 X175.53 Y159.715 E.01856
G1 X176.143 Y159.851 E.0227
G1 X176.378 Y159.953 E.00924
G1 X187.649 Y166.461 E.46992
G1 X188.026 Y166.764 E.01747
G1 X188.296 Y167.118 E.01606
G1 X188.481 Y167.533 E.01641
G1 X188.541 Y168.052 E.01888
G1 X188.483 Y168.488 E.01589
G1 X188.31 Y168.928 E.01705
G1 X181.802 Y180.2 E.46996
G1 X181.507 Y180.569 E.01705
G1 X181.159 Y180.838 E.01589
G1 X180.656 Y181.051 E.01973
G1 X180.008 Y181.087 E.02341
G1 X179.442 Y180.923 E.02131
G1 X168.062 Y174.353 E.47443
G1 X167.685 Y174.05 E.01747
G1 X167.416 Y173.696 E.01606
G1 X167.244 Y173.275 E.01641
G1 X167.661 Y173.015 F9000
G1 F1800
G1 X167.63 Y172.612 E.0146
G1 X167.797 Y172.114 E.01897
G1 X174.304 Y160.843 E.4699
G1 X174.57 Y160.518 E.01515
G1 X174.919 Y160.29 E.01507
G1 X175.419 Y160.182 E.01847
G1 X175.734 Y160.203 E.01138
G1 X176.15 Y160.349 E.01592
G1 X187.421 Y166.856 E.46991
G1 X187.816 Y167.206 E.01907
G1 X188.043 Y167.662 E.01837
G1 X188.08 Y168.209 E.0198
G1 X187.914 Y168.699 E.01868
G1 X181.406 Y179.971 E.46996
G1 X181.065 Y180.36 E.01868
G1 X180.558 Y180.604 E.0203
G1 X180.065 Y180.633 E.01786
G1 X179.582 Y180.476 E.01832
G1 X168.291 Y173.957 E.47076
G1 X167.895 Y173.607 E.01908
G1 X167.672 Y173.162 E.01794
G1 X167.664 Y173.055 E.00388
G1 X168.265 Y173.32 F9000
;TYPE:Outer wall
G1 F1800
G1 X168.237 Y173.294 E.00137
G1 X168.098 Y172.97 E.01272
G1 X168.094 Y172.62 E.01266
G1 X168.193 Y172.343 E.01062
G1 X174.7 Y161.072 E.46989
G1 X174.885 Y160.852 E.01039
G1 X175.17 Y160.686 E.0119
G1 X175.599 Y160.639 E.01557
G1 X175.921 Y160.745 E.01223
G1 X187.192 Y167.252 E.46991
G1 X187.474 Y167.519 E.01402
G1 X187.613 Y167.843 E.01272
G1 X187.617 Y168.194 E.01266
G1 X187.518 Y168.47 E.01062
G1 X181.01 Y179.743 E.46996
G1 X180.75 Y180.021 E.01374
G1 X180.428 Y180.162 E.01272
G1 X180.076 Y180.169 E.0127
G1 X179.792 Y180.069 E.01087
G1 X168.519 Y173.561 E.46999
G1 X168.294 Y173.348 E.01121
G1 E-1.2 F2400
;WIPE_START
G1 F9000
G1 X168.237 Y173.294
G1 X168.098 Y172.97
G1 X168.094 Y172.62
G1 X168.193 Y172.343
G1 X168.655 Y171.542
;WIPE_END
G1 X167.145 Y168.037 Z.4
G1 X159.496 Y150.287 Z.4
G1 Z.2
G1 E1.2 F1800
;TYPE:Inner wall
G1 X159.88 Y150.428 E.01477
G1 X171.151 Y156.936 E.46991
G1 X171.578 Y157.285 E.01989
G1 X171.798 Y157.593 E.01367
G1 X172.005 Y158.092 E.01952
G1 X172.046 Y158.6 E.01839
G1 X171.985 Y158.963 E.0133
G1 X171.811 Y159.404 E.01713
G1 X165.304 Y170.675 E.46988
G1 X165.01 Y171.044 E.01705
G1 X164.661 Y171.313 E.01589
G1 X164.162 Y171.525 E.01958
G1 X163.51 Y171.561 E.02358
G1 X162.892 Y171.368 E.02338
G1 X151.564 Y164.828 E.47227
G1 X151.187 Y164.524 E.01747
G1 X150.918 Y164.171 E.01606
G1 X150.71 Y163.666 E.01971
G1 X150.672 Y163.106 E.02025
G1 X150.788 Y162.631 E.01765
G1 X150.904 Y162.361 E.01062
G1 X157.411 Y151.09 E.46988
G1 X157.72 Y150.695 E.01813
G1 X158.226 Y150.352 E.02206
G1 X158.522 Y150.26 E.01122
G1 X159.057 Y150.19 E.01947
G1 X159.37 Y150.241 E.01145
G1 X159.459 Y150.273 E.0034
G1 X159.197 Y150.673 F9000
G1 F1800
G1 X159.236 Y150.678 E.00141
G1 X159.652 Y150.824 E.01592
G1 X170.923 Y157.331 E.46991
G1 X171.316 Y157.678 E.01891
G1 X171.536 Y158.11 E.01751
G1 X171.589 Y158.598 E.01772
G1 X171.459 Y159.099 E.0187
G1 X164.908 Y170.446 E.47308
G1 X164.561 Y170.84 E.01897
G1 X164.063 Y171.079 E.01993
G1 X163.566 Y171.108 E.01796
G1 X163.066 Y170.94 E.01906
G1 X151.793 Y164.432 E.46999
G1 X151.397 Y164.081 E.0191
G1 X151.149 Y163.523 E.02206
G1 X151.138 Y163.048 E.01712
G1 X151.299 Y162.589 E.01758
G1 X157.806 Y151.319 E.46988
G1 X158.038 Y151.024 E.01354
G1 X158.44 Y150.756 E.01744
G1 X158.986 Y150.649 E.02008
G1 X159.157 Y150.669 E.00623
G1 X158.783 Y151.149 F9000
;TYPE:Outer wall
G1 F1800
G1 X159.101 Y151.114 E.01156
G1 X159.423 Y151.22 E.01224
G1 X170.694 Y157.727 E.46991
G1 X170.977 Y157.994 E.01403
G1 X171.115 Y158.318 E.01272
G1 X171.119 Y158.668 E.01266
G1 X171.019 Y158.947 E.01069
G1 X164.512 Y170.218 E.46988
G1 X164.252 Y170.496 E.01374
G1 X163.93 Y170.637 E.01272
G1 X163.578 Y170.644 E.01269
G1 X163.294 Y170.544 E.01087
G1 X152.021 Y164.036 E.46999
G1 X151.739 Y163.769 E.01402
G1 X151.6 Y163.445 E.01272
G1 X151.596 Y163.095 E.01266
G1 X151.695 Y162.818 E.01062
G1 X158.202 Y151.547 E.46988
G1 X158.388 Y151.327 E.0104
G1 X158.672 Y151.161 E.0119
G1 X158.743 Y151.154 E.00256
G1 E-1.2 F2400
;WIPE_START
G1 F9000
G1 X159.101 Y151.114
G1 X159.423 Y151.22
G1 X160.55 Y151.87
;WIPE_END
G1 X156.955 Y150.588 Z.4
G1 X136.087 Y143.146 Z.4
G1 Z.2
G1 E1.2 F1800
;TYPE:Inner wall
G1 X136.208 Y143.122 E.00446
G1 X136.728 Y143.181 E.0189
G1 X149.3 Y146.549 E.46991
G1 X149.859 Y146.811 E.02229
G1 X150.094 Y147.017 E.01128
G1 X150.4 Y147.403 E.01778
G1 X150.601 Y147.953 E.02116
G1 X150.629 Y148.292 E.01228
G1 X150.576 Y148.761 E.01705
G1 X147.208 Y161.334 E.46996
G1 X146.95 Y161.887 E.02203
G1 X146.752 Y162.117 E.01095
G1 X146.321 Y162.452 E.01971
G1 X145.706 Y162.654 E.02338
G1 X145.086 Y162.635 E.02241
G1 X132.423 Y159.242 E.47335
G1 X131.98 Y159.047 E.01747
G1 X131.628 Y158.775 E.01606
G1 X131.338 Y158.415 E.01668
G1 X131.149 Y157.936 E.01861
G1 X131.093 Y157.499 E.01589
G1 X131.146 Y157.03 E.01705
G1 X134.515 Y144.457 E.46996
G1 X134.692 Y144.037 E.01646
G1 X134.976 Y143.679 E.01652
G1 X135.413 Y143.332 E.02015
G1 X135.688 Y143.227 E.01061
G1 X136.048 Y143.154 E.01328
G1 X136.5 Y143.608 F9000
G1 F1800
G1 X136.61 Y143.622 E.00401
G1 X149.181 Y146.991 E.46991
G1 X149.608 Y147.193 E.01706
G1 X149.965 Y147.57 E.01873
G1 X150.156 Y148.058 E.01894
G1 X150.153 Y148.576 E.01869
G1 X146.753 Y161.259 E.47409
G1 X146.521 Y161.7 E.01799
G1 X146.111 Y162.046 E.01937
G1 X145.642 Y162.202 E.01784
G1 X145.114 Y162.169 E.0191
G1 X132.541 Y158.8 E.46999
G1 X132.068 Y158.565 E.01906
G1 X131.729 Y158.179 E.01855
G1 X131.555 Y157.673 E.01934
G1 X131.587 Y157.148 E.01898
G1 X134.956 Y144.576 E.46996
G1 X135.175 Y144.127 E.01802
G1 X135.57 Y143.772 E.01918
G1 X135.795 Y143.672 E.0089
G1 X136.269 Y143.577 E.01745
G1 X136.46 Y143.602 E.00698
G1 X135.812 Y144.186 F9000
;TYPE:Outer wall
G1 F1800
G1 X135.902 Y144.116 E.00412
G1 X136.351 Y144.026 E.01653
G1 X149.063 Y147.432 E.47519
G1 X149.405 Y147.617 E.01403
G1 X149.623 Y147.894 E.01272
G1 X149.717 Y148.231 E.01266
G1 X149.693 Y148.525 E.01062
G1 X146.325 Y161.097 E.46996
G1 X146.145 Y161.433 E.01374
G1 X145.871 Y161.653 E.01272
G1 X145.533 Y161.751 E.01269
G1 X145.233 Y161.728 E.01087
G1 X132.659 Y158.359 E.46999
G1 X132.318 Y158.174 E.01403
G1 X132.1 Y157.897 E.01272
G1 X132.005 Y157.56 E.01266
G1 X132.029 Y157.267 E.01061
G1 X135.398 Y144.694 E.46996
G1 X135.559 Y144.383 E.01264
G1 X135.78 Y144.211 E.01012
G1 E-1.2 F2400
;WIPE_START
G1 F9000
G1 X135.902 Y144.116
G1 X136.351 Y144.026
G1 X137.692 Y144.385
;WIPE_END
G1 X134.071 Y143.178 Z.4
G1 X131.997 Y142.486 Z.4
G1 Z.2
G1 E1.2 F1800
;TYPE:Inner wall
G1 X132.03 Y142.53 E.00198
G1 X132.22 Y143.129 E.02271
G1 X132.209 Y143.707 E.02088
G1 X128.807 Y156.403 E.47456
G1 X128.618 Y156.836 E.01705
G1 X128.351 Y157.186 E.01589
G1 X127.948 Y157.507 E.01861
G1 X127.517 Y157.673 E.01667
G1 X127.076 Y157.733 E.01606
G1 X126.595 Y157.68 E.01747
G1 X114.022 Y154.311 E.46999
G1 X113.579 Y154.116 E.01747
G1 X113.227 Y153.844 E.01606
G1 X112.948 Y153.502 E.01593
G1 X112.748 Y153.005 E.01935
G1 X112.69 Y152.614 E.01427
G1 X112.745 Y152.099 E.01869
G1 X116.114 Y139.527 E.46996
G1 X116.274 Y139.143 E.01503
G1 X116.553 Y138.768 E.01688
G1 X117.019 Y138.398 E.02148
G1 X117.6 Y138.221 E.02193
G1 X118.017 Y138.199 E.01508
G1 X118.328 Y138.25 E.01134
G1 X130.899 Y141.619 E.46991
G1 X131.342 Y141.814 E.01747
G1 X131.693 Y142.086 E.01606
G1 X131.972 Y142.454 E.01668
G1 X131.635 Y142.812 F9000
G1 F1800
G1 X131.767 Y143.192 E.01451
G1 X131.734 Y143.712 E.01883
G1 X128.365 Y156.285 E.46996
G1 X128.131 Y156.756 E.01898
M73 P1 R92
G1 X127.727 Y157.107 E.01934
G1 X127.241 Y157.271 E.01852
G1 X126.713 Y157.239 E.01908
G1 X114.14 Y153.87 E.46999
G1 X113.667 Y153.634 E.01908
G1 X113.335 Y153.259 E.01808
G1 X113.16 Y152.777 E.01853
G1 X113.172 Y152.284 E.01779
G1 X116.555 Y139.645 E.47242
G1 X116.756 Y139.22 E.01698
G1 X117.1 Y138.894 E.01712
G1 X117.394 Y138.741 E.01195
G1 X117.868 Y138.647 E.01745
G1 X118.209 Y138.692 E.01243
G1 X130.781 Y142.06 E.46991
G1 X131.255 Y142.297 E.01914
G1 X131.585 Y142.67 E.018
G1 X131.622 Y142.775 E.004
G1 X130.974 Y142.67 F9000
;TYPE:Outer wall
G1 F1800
G1 X131.004 Y142.686 E.00122
G1 X131.222 Y142.963 E.01272
G1 X131.316 Y143.301 E.01266
G1 X131.293 Y143.594 E.01062
G1 X127.924 Y156.167 E.46996
G1 X127.744 Y156.502 E.01375
G1 X127.47 Y156.723 E.01272
G1 X127.132 Y156.82 E.01269
G1 X126.832 Y156.797 E.01087
